!!!!SEGMENT:pl-sa--244-a-vii-4--002_boczkowski-kazimierz-christus-resurgens-ex-mortuis-christus-resurgens.krn
!!!id: 17xx:319
!!!COM: Boczkowski, Kazimierz
!!!OTL: Christus resurgens ex mortuis – Christus resurgens
!!!PDT: 1700
!!!SMS-siglum: PL-SA
!!!SMS-shelfmark: 244/A VII 4
!!!NIFC-rismID: 1001035386
!!!system-decoration: [(s1,s2,s3)][(s4,s5,s6)]s7
**kern	**fba	**kern	**text	**text	**kern	**text	**text	**kern	**text	**text	**dynam	**kern	**kern	**kern
*part8	*part8	*part7	*part7	*part7	*part6	*part6	*part6	*part5	*part5	*part5	*part5	*part3	*part2	*part1
*staff8	*staff8	*staff7	*staff7	*staff7	*staff6	*staff6	*staff6	*staff5	*staff5	*staff5	*staff5	*staff3	*staff2	*staff1
*I"Basso	*	*I"Basso	*	*	*I"Canto Secundo	*	*	*I"Canto Primo	*	*	*	*I"Clarino 2do	*I"Clarino 1mo	*I"Clarino Primo
*I'bc	*	*I'B	*	*	*I'S	*	*	*I'S	*	*	*	*I'clno 2 in D	*I'clno 1 in D	*I'clno 1 in D
*clefF4	*	*clefF4	*	*	*clefC1	*	*	*clefC1	*	*	*	*clefG2	*clefG2	*clefG2
*	*	*	*	*	*	*	*	*	*	*	*	*ITrd-1c-2	*ITrd-1c-2	*ITrd-1c-2
*k[f#c#]	*	*k[f#c#]	*	*	*k[f#c#]	*	*	*k[f#c#]	*	*	*	*k[f#c#]	*k[f#c#]	*k[f#c#]
*M3/2	*	*M3/2	*	*	*M3/2	*	*	*M3/2	*	*	*	*M3/2	*M3/2	*M3/2
=1	=1	=1	=1	=1	=1	=1	=1	=1	=1	=1	=1	=1	=1	=1
*2\right	*	*2\right	*	*	*2\right	*	*	*	*	*	*	*2\right	*2\right	*2\right
!	!	!	!	!	!	!	!	!	!	!	!	!	!LO:TX:a:t=P:w źródle w partii Clarino 1mo wszystkie caudy z prawej strony:problem	!
!LO:SIC:o=C:v:t='C' znajduje się przed kluczem i oznaczeniem metrum	!	!	!	!	!	!	!	!	!	!	!	!LO:SIC:o=C:v:t='C' znajduje się przed kluczem i oznaczeniem metrum	!LO:SIC:o=C:v:t='C' znajduje się przed kluczem i oznaczeniem metrum	!
!LO:TX:a:i:t=Solo	!	!	!	!	!	!	!	!LO:TX:a:B:t=Solo	!	!	!	!LO:TX:b:Bi:t=C	!LO:TX:b:Bi:t=C Hriſtus	!LO:TX:b:B:t=Chriſtus
!	!	!LO:N:vis=0	!	!	!	!	!	!	!	!	!	!LO:N:vis=00	!LO:N:vis=0	!LO:N:vis=0
1D	.	0.r	.	.	1.r	.	.	2d/	Chri-	Chri-	.	00.r	0.r	0.r
.	.	.	.	.	.	.	.	2f#,/	-ſtus	-ſtus	.	.	.	.
2C#/	.	.	.	.	.	.	.	2a\	re-	a-	.	.	.	.
=2	=2	=2	=2	=2	=2	=2	=2	=2	=2	=2	=2	=2	=2	=2
1D	.	.	.	.	2d/	CHri-	CHri-	2dd\	-ſur-	-ſcen-	.	.	.	.
!	!	!	!	!	!LO:TX:b:t=a2:rj	!	!	!LO:TX:b:t=a2:rj	!	!	!	!	!	!
.	.	.	.	.	2f#,/	-ſtus	-ſtus	2dd,\	-gens	-dens	.	.	.	.
*	*	*	*	*	*	*	*	*	*ij	*ij	*	*	*	*
2AA/	.	.	.	.	2a\	Re-	a-	2cc#\	re-	a-	.	.	.	.
=3	=3	=3	=3	=3	=3	=3	=3	=3	=3	=3	=3	=3	=3	=3
2D\	.	2D\	CHri-	Chri-	2dd\	-ſur-	-ſcen-	2dd\	-ſur-	-ſcen-	.	.	1.r	1.r
4F#\	.	(>4F#\	-ſtus	-ſtus	2dd\	-gens	-dens	2ff#,\	-gens	-dens	.	.	.	.
4G\	.	4G\)	.	.	.	.	.	.	.	.	.	.	.	.
*	*	*	*	*	*	*	*	*	*Xij	*Xij	*	*	*	*
2A\	.	4A\	.	.	2cc#X\	re-	in	2ee\	re-	in	.	.	.	.
.	.	4AA/	Re-	a-	.	.	.	.	.	.	.	.	.	.
!	!	!	!	!	!	!	!	!	!	!	!	!	!LO:TX:a:t=P:w źródle brak kreski taktowej:problem	!LO:TX:a:t=P:w źródle brak kreski taktowej:problem
=4	=4	=4	=4	=4	=4	=4	=4	=4	=4	=4	=4	=4	=4	=4
!LO:TX:b:Bi:t=Clarini	!	!	!	!	!	!	!	!	!	!	!	!	!	!
1.D	.	1D	-sur-	-scen-	1dd	-ſur-	al-	1ff#	-ſur-	al-	.	.	2d/	2d/
.	.	.	.	.	.	.	.	.	.	.	.	.	2f#/	2f#/
.	.	2D\	-gens	-dens	2dd\	-gens	-tum.	2ff#\	-gens	-tum.	.	.	2a/	2a/
!	!	!	!	!	!	!	!	!	!	!	!	!LO:TX:a:t=P:w źródle brak kreski taktowej:problem	!	!
=5	=5	=5	=5	=5	=5	=5	=5	=5	=5	=5	=5	=5	=5	=5
!	!	!LO:N:vis=0	!	!	!LO:N:vis=0	!	!	!LO:N:vis=0	!	!	!	!	!	!
1D	.	0.r	.	.	0.r	.	.	0.r	.	.	.	2d/	2dd\	2dd\
.	.	.	.	.	.	.	.	.	.	.	.	2f#/	2dd\	2dd\
2C#/	6	.	.	.	.	.	.	.	.	.	.	2a/	4ee\	4ee\
.	.	.	.	.	.	.	.	.	.	.	.	.	4ee\	4ee\
!	!	!	!	!	!	!	!	!	!	!	!	!	!LO:LB:g=original	!LO:LB:g=original
=6	=6	=6	=6	=6	=6	=6	=6	=6	=6	=6	=6	=6	=6	=6
1D	.	.	.	.	.	.	.	.	.	.	.	2dd\	2ff#\	2ff#\
.	.	.	.	.	.	.	.	.	.	.	.	4ee\	4gg\	4gg\
.	.	.	.	.	.	.	.	.	.	.	.	4ff#\	4aa\	4aa\
2G\	.	.	.	.	.	.	.	.	.	.	.	4ee\	4gg\	4gg\
.	.	.	.	.	.	.	.	.	.	.	.	4dd\	4ff#\	4ff#\
=7	=7	=7	=7	=7	=7	=7	=7	=7	=7	=7	=7	=7	=7	=7
1A	.	1.r	.	.	1.r	.	.	1.r	.	.	.	1a	1ee	1ee
2D\	.	.	.	.	.	.	.	.	.	.	.	2f#/	2dd\	2dd\
!	!	!LO:TX:a:t=P:w źródle brak kreski taktowej:problem	!	!	!LO:TX:a:t=P:w źródle brak kreski taktowej:problem	!	!	!LO:TX:a:t=P:w źródle brak kreski taktowej:problem	!	!	!	!LO:TX:a:t=P:w źródle brak kreski taktowej:problem	!	!
=8	=8	=8	=8	=8	=8	=8	=8	=8	=8	=8	=8	=8	=8	=8
*	*	*	*	*ij	*	*	*	*	*	*	*	*	*	*
!	!	!	!	!	!	!	!	!	!	!	!	!LO:N:vis=00	!LO:N:vis=00	!LO:N:vis=00
2D\	.	2D/	Chri-	Chri-	2dd\	Chri-	chri-	2ff#\	Chri-	Chri-	.	00.r	00.r	00.r
!LO:TX:b:t=a3	!	!	!	!	!	!	!	!	!	!	!	!	!	!
2G\	.	2GG,/	-ſtus	-ſtus	2cc#\	-ſtus	-ſtus	2ee,\	-ſtus	-ſtus	.	.	.	.
2G\	.	2GG/	re-	a-	2b\	Re-	a-	2dd\	Re-	a-	.	.	.	.
=9	=9	=9	=9	=9	=9	=9	=9	=9	=9	=9	=9	=9	=9	=9
2AA/	.	2AA/	-ſur-	-scen-	2cc#X\	-ſur-	-ſcen-	2ee\	-ſur-	-ſcen-	.	.	.	.
2A\	.	2A,\	-gens	-dens	2cc#,\	-gens	-dens	2ee,\	-gens	-dens,	.	.	.	.
*	*	*	*	*Xij	*	*ij	*	*	*	*	*	*	*	*
2F#\	.	2F#\	Re-	a-	2dd\	Re-	a-	2ff#\	re-	a-	.	.	.	.
!	!	!	!	!	!	!	!	!LO:LB:g=original	!	!	!	!	!	!
=10	=10	=10	=10	=10	=10	=10	=10	=10	=10	=10	=10	=10	=10	=10
2G\	.	2G\	-ſur-	-scen-	2b\	-ſur-	-scen-	2dd\	-ſur-	-ſcen-	.	.	.	.
2E\	.	2E\	-gens	-dens	2cc#,\	-ſens	-dens	2ee\	-gens	-dens	.	.	.	.
*	*	*	*	*	*	*Xij	*	*	*	*	*	*	*	*
2D\	.	2D/	ex	in	2dd\	ex	in	2ff#\	ex	.	.	.	.	.
!LO:LB:g=original	!	!LO:LB:g=original	!	!	!LO:LB:g=original	!	!	!	!	!	!	!	!	!
=11	=11	=11	=11	=11	=11	=11	=11	=11	=11	=11	=11	=11	=11	=11
1A	.	1A	Mor-	al-	1dd	Mor-	al-	1ee	Mor-	in	.	.	.	.
2AA/	.	2AA/	-tu-	-tum	2cc#X\	-tu-	.	2ee\	-tu-	al-	.	.	.	.
!	!	!	!	!	!	!	!	!	!	!	!	!	!LO:TX:a:t=P:w źródle brak kreski taktowej:problem	!LO:TX:a:t=P:w źródle brak kreski taktowej:problem
!	!	!	!	!	!	!	!	!	!	!	!	!LO:LB:g=original	!	!
=12	=12	=12	=12	=12	=12	=12	=12	=12	=12	=12	=12	=12	=12	=12
1D	.	1.D	-is	.	1.dd	-is	-tum	1.dd	-is	-tum.	.	2ff#\	2aa\	2aa\
.	.	.	.	.	.	.	.	.	.	.	.	4gg\	4bb\	4bb\
.	.	.	.	.	.	.	.	.	.	.	.	4ff#\	4aa\	4aa\
!LO:TX:b:Bi:t=Clarini	!	!	!	!	!	!	!	!	!	!	!	!	!	!
2G\	.	.	.	.	.	.	.	.	.	.	.	4ee\	4gg\	4gg\
.	.	.	.	.	.	.	.	.	.	.	.	4dd\	4ff#\	4ff#\
=13	=13	=13	=13	=13	=13	=13	=13	=13	=13	=13	=13	=13	=13	=13
!	!	!LO:N:vis=00	!	!	!LO:N:vis=00	!	!	!LO:N:vis=00	!	!	!	!	!	!
1.A	.	00.r	.	.	00.r	.	.	00.r	.	.	.	2a/	2ee\	2ee\
.	.	.	.	.	.	.	.	.	.	.	.	2a/	2ee\	2ee\
.	.	.	.	.	.	.	.	.	.	.	.	2r	2r	2r
=14	=14	=14	=14	=14	=14	=14	=14	=14	=14	=14	=14	=14	=14	=14
2D\	.	.	.	.	.	.	.	.	.	.	.	2f#/	2dd\	2dd\
2A\	.	.	.	.	.	.	.	.	.	.	.	2a/	4ee\	4ee\
.	.	.	.	.	.	.	.	.	.	.	.	.	4dd\	4dd\
2F#\	#6	.	.	.	.	.	.	.	.	.	.	2dd\	4ee\	4ee\
.	.	.	.	.	.	.	.	.	.	.	.	.	4ff#\	4ff#\
=15	=15	=15	=15	=15	=15	=15	=15	=15	=15	=15	=15	=15	=15	=15
*	*^	*	*	*	*	*	*	*	*	*	*	*	*	*
1E	-6	6	.	.	.	.	.	.	.	.	.	.	4ee\	4gg\	4gg\
.	.	.	.	.	.	.	.	.	.	.	.	.	4dd\	4ff#\	4ff#\
.	.	.	.	.	.	.	.	.	.	.	.	.	4ee\	4gg\	4gg\
.	.	.	.	.	.	.	.	.	.	.	.	.	4ff#\	4aa\	4aa\
2D\	.	.	.	.	.	.	.	.	.	.	.	.	2dd\	2ff#\	2ff#\
*	*v	*v	*	*	*	*	*	*	*	*	*	*	*	*	*
=16	=16	=16	=16	=16	=16	=16	=16	=16	=16	=16	=16	=16	=16	=16
1A	.	.	.	.	.	.	.	.	.	.	.	1a	1.ee	1.ee
!LO:TX:a:t=a3	!	!	!	!	!	!	!	!	!	!	!	!	!	!
2AA/	.	.	.	.	.	.	.	.	.	.	.	2a/	.	.
!	!	!LO:TX:a:t=P:w źródle brak kreski taktowej:problem	!	!	!LO:TX:a:t=P:w źródle brak kreski taktowej:problem	!	!	!LO:TX:a:t=P:w źródle brak kreski taktowej:problem	!	!	!	!	!	!
=17	=17	=17	=17	=17	=17	=17	=17	=17	=17	=17	=17	=17	=17	=17
!LO:TX:b:t=2cc	!	!	!	!	!	!	!	!	!	!	!	!	!	!
1D	.	2r	.	.	2r	.	.	2r	.	.	.	2f#/	2dd\	2dd\
.	.	2r	.	.	2r	.	.	2r	.	.	.	2r	2r	2r
2D\	.	2D\	ex	ca-	2dd\	ex	.	2ff#\	ex	ca-	.	2r	2r	2r
!	!	!	!	!	!	!	!	!	!	!	!	!	!LO:TX:a:t=P:w źródle brak kreski taktowej:problem	!
=18	=18	=18	=18	=18	=18	=18	=18	=18	=18	=18	=18	=18	=18	=18
!	!	!	!	!	!	!	!	!	!	!	!	!LO:N:vis=00	!LO:N:vis=00	!LO:N:vis=00
2.AA/	.	2.A\	Mor-	.	2.cc#\	Mor-	-ca-	2.ee\	Mor-	-pti-	.	00.r	00.r	00.r
4AA/	.	4A\	-tu-	-pti-	4cc#\	-tu-	-pti-	4ee\	-tu-	-vam	.	.	.	.
2AA/	.	2A\	-is	-vam	2cc#\	-is	-vam	2ee\	-is	.	.	.	.	.
=19	=19	=19	=19	=19	=19	=19	=19	=19	=19	=19	=19	=19	=19	=19
2.D\	.	(>2.D\	iam	du-	2.dd\	iam	du-	2.ff#\	iam	du-	.	.	.	.
4E\	.	4E\	.	.	4cc#\	.	.	4ee\	.	.	.	.	.	.
4F#\	.	4F#\	.	.	4dd\	.	.	4ff#\	.	.	.	.	.	.
4D\	.	4D\)	.	.	4ee\	.	.	4gg\	.	.	.	.	.	.
=20	=20	=20	=20	=20	=20	=20	=20	=20	=20	=20	=20	=20	=20	=20
*	*	*	*	*	*	*ij	*	*	*	*	*	*	*	*
1.A	.	1.A	iam	-xit	1.dd	iam	-xit,	1.ee	iam	-xit	.	.	.	.
*	*	*	*	*	*	*Xij	*	*	*	*	*	*	*	*
!LO:LB:g=original	!	!	!	!	!	!	!	!	!	!	!	!	!	!
=21	=21	=21	=21	=21	=21	=21	=21	=21	=21	=21	=21	=21	=21	=21
1A	.	(>2G\	iam	ca-	2b\	i-	ca-	1gg	iam	ca-	.	.	.	.
.	.	2A\)	.	-pti-	2cc#X\	-am	-pti-	.	.	.	.	.	.	.
2B\	.	2B\	Non	-vi-	2dd\	nom	-vi-	2ff#\	non	-pti-	.	.	.	.
=22	=22	=22	=22	=22	=22	=22	=22	=22	=22	=22	=22	=22	=22	=22
!	!	!	!	!	!	!	!	!	!	!	!	!LO:N:vis=0	!LO:N:vis=0	!LO:N:vis=0
2.A\	.	2.A\	Mo-	-ta-	2.dd\	Mo-	-ta-	2.ee\	Mo-	-vi-	.	0.r	0.r	0.r
!	!	!LO:N:vis=8	!	!	!	!	!	!	!	!	!	!	!	!
4AA/	.	4AA/	-ri-	.	4cc#\	-ri-	.	4ee\	-ri-	-ta-	.	.	.	.
2DD/	.	2D\	-tur	-tem	2dd\	-tur	-tem	2dd\	-tur	-tem	.	.	.	.
=23	=23	=23	=23	=23	=23	=23	=23	=23	=23	=23	=23	=23	=23	=23
*	*	*	*	*	*	*ij	*	*	*ij	*	*	*	*	*
2GG/	.	2G\	i-	ca-	2b\	i-	ca-	1gg	iam	ca-	.	.	.	.
2AA/	.	2A\	-am	-pti-	2cc#\	-am	-pti-	.	.	.	.	.	.	.
2BB/	-n	2B\	non	-vi-	2dd\	nom	-vi-	2ff#\	non	-pti-	.	.	.	.
!	!	!LO:LB:g=original	!	!	!	!	!	!	!	!	!	!	!	!
=24	=24	=24	=24	=24	=24	=24	=24	=24	=24	=24	=24	=24	=24	=24
1AA	.	1A	Mo-	-ta-	1dd	Mo-	-ta-	1ee	Mo-	-vi-	.	1.r	1.r	1.r
2AA/	.	2AA/	-ri-	.	2cc#X\	-ri-	.	2ee\	-ri-	-ta-	.	.	.	.
!	!	!LO:TX:a:t=P:w źródle brak kreski taktowej:problem	!	!	!	!	!	!	!	!	!	!LO:TX:a:t=P:w źródle brak kreski taktowej:problem	!LO:TX:a:t=P:w źródle brak kreski taktowej:problem	!LO:TX:a:t=P:w źródle brak kreski taktowej:problem
=25	=25	=25	=25	=25	=25	=25	=25	=25	=25	=25	=25	=25	=25	=25
!LO:TX:b:Bi:t=Clarini	!	!	!	!	!	!	!	!	!	!	!	!	!	!
1.D	.	1.D	-tur	-tem	1.dd	-tur	-tem	1.ff#X	-tur	-tem	.	4ff#\	4aa\	4aa\
.	.	.	.	.	.	.	.	.	.	.	.	4gg\	4bb\	4bb\
.	.	.	.	.	.	.	.	.	.	.	.	4ff#\	4aa\	4aa\
.	.	.	.	.	.	.	.	.	.	.	.	4ee\	4gg\	4gg\
.	.	.	.	.	.	.	.	.	.	.	.	4dd\	4ff#\	4ff#\
.	.	.	.	.	.	.	.	.	.	.	.	4ee\	4gg\	4gg\
!	!	!	!	!	!LO:TX:a:t=P:w źródle brak kreski taktowej:problem	!	!	!	!	!	!	!	!	!
*	*	*	*	*	*	*Xij	*	*	*Xij	*	*	*	*	*
!	!	!	!	!	!	!	!	!LO:LB:g=original	!	!	!	!	!LO:LB:g=original	!LO:LB:g=original
=26	=26	=26	=26	=26	=26	=26	=26	=26	=26	=26	=26	=26	=26	=26
!	!	!LO:N:vis=00	!	!	!LO:N:vis=00	!	!	!LO:N:vis=00	!	!	!	!	!	!
1.AA	.	00.r	.	.	00.r	.	.	00.r	.	.	.	2a/	2ee\	2ee\
.	.	.	.	.	.	.	.	.	.	.	.	4a/	4ee\	4ee\
.	.	.	.	.	.	.	.	.	.	.	.	4a/	4ee\	4ee\
.	.	.	.	.	.	.	.	.	.	.	.	2a/	2ee\	2ee\
=27	=27	=27	=27	=27	=27	=27	=27	=27	=27	=27	=27	=27	=27	=27
2D\	.	.	.	.	.	.	.	.	.	.	.	2dd\	2ff#\	2ff#\
1G	.	.	.	.	.	.	.	.	.	.	.	4ee\	4gg\	4gg\
.	.	.	.	.	.	.	.	.	.	.	.	4ff#\	4aa\	4aa\
.	.	.	.	.	.	.	.	.	.	.	.	4ee\	4gg\	4gg\
.	.	.	.	.	.	.	.	.	.	.	.	4dd\	4ff#\	4ff#\
!	!	!	!	!	!	!	!	!	!	!	!	!LO:LB:g=original	!	!
=28	=28	=28	=28	=28	=28	=28	=28	=28	=28	=28	=28	=28	=28	=28
2A\	.	.	.	.	.	.	.	.	.	.	.	2a/	2ee\	2ee\
2r	.	.	.	.	.	.	.	.	.	.	.	2r	2r	2r
2r	.	.	.	.	.	.	.	.	.	.	.	2r	2r	2r
=29	=29	=29	=29	=29	=29	=29	=29	=29	=29	=29	=29	=29	=29	=29
*	*^	*	*	*	*	*	*	*	*	*	*	*	*	*
1E	7	#n 6	.	.	.	.	.	.	.	.	.	.	4ee\	4gg\	4gg\
.	.	.	.	.	.	.	.	.	.	.	.	.	4dd\	4ff#\	4ff#\
.	.	.	.	.	.	.	.	.	.	.	.	.	4ee\	4gg\	4gg\
.	.	.	.	.	.	.	.	.	.	.	.	.	4ff#\	4aa\	4aa\
2D\	#	.	.	.	.	.	.	.	.	.	.	.	2dd\	2ff#\	2ff#\
*	*v	*v	*	*	*	*	*	*	*	*	*	*	*	*	*
=30	=30	=30	=30	=30	=30	=30	=30	=30	=30	=30	=30	=30	=30	=30
!	!	!LO:N:vis=00	!	!	!LO:N:vis=00	!	!	!LO:N:vis=00	!	!	!	!	!	!
1A	.	00.r	.	.	00.r	.	.	00.r	.	.	.	2.a/	2.ee\	2.ee\
.	.	.	.	.	.	.	.	.	.	.	.	4a/	4ee\	4ee\
2D\	.	.	.	.	.	.	.	.	.	.	.	2f#/	2dd\	2dd\
=31	=31	=31	=31	=31	=31	=31	=31	=31	=31	=31	=31	=31	=31	=31
1G	.	.	.	.	.	.	.	.	.	.	.	2ee\	2gg\	2gg\
.	.	.	.	.	.	.	.	.	.	.	.	4ff#\	4aa\	4aa\
.	.	.	.	.	.	.	.	.	.	.	.	4ee\	4gg\	4gg\
2B\	.	.	.	.	.	.	.	.	.	.	.	2dd\	2ff#\	2ff#\
=32	=32	=32	=32	=32	=32	=32	=32	=32	=32	=32	=32	=32	=32	=32
1G	6 5	.	.	.	.	.	.	.	.	.	.	1a	1ee	1ee
2A\	.	.	.	.	.	.	.	.	.	.	.	2a/	2ee\	2ee\
!LO:TX:a:t=P:w źródle brak kreski taktowej:problem	!	!	!	!	!	!	!	!	!	!	!	!	!LO:TX:a:t=P:w źródle brak kreski taktowej:problem	!
!LO:LB:g=original	!	!	!	!	!	!	!	!	!	!	!	!	!	!
=33	=33	=33	=33	=33	=33	=33	=33	=33	=33	=33	=33	=33	=33	=33
!	!	!	!	!	!	!	!	!	!	!	!	!	!LO:SIC:s=1.ee:v	!LO:SIC:s=1.ee:v
1.D	.	.	.	.	.	.	.	.	.	.	.	1.ddTT>	1.ff##X	1.ff##X
!	!	!	!	!	!LO:LB:g=original	!	!	!	!	!	!	!	!	!
=34||	=34||	=34||	=34||	=34||	=34||	=34||	=34||	=34||	=34||	=34||	=34||	=34||	=34	=34
*M4/4	*	*M4/4	*	*	*M4/4	*	*	*M4/4	*	*	*	*M4/4	*M2/2	*M4/4
*met(c)	*	*met(c)	*	*	*met(c)	*	*	*met(c)	*	*	*	*met(c)	*met(c|)	*met(c)
!LO:TX:a:t=a3:rj	!	!LO:TX:a:t=a3	!	!	!	!	!	!	!	!	!	!	!LO:TX:a:t=P:w źródle metrum alla breve:problem	!
2D\	.	2D\	Mors	Et	2dd\	Mors	Et	2ff#\	Mors	et	.	0r	0r	0r
8r	.	8r	.	.	8r	.	.	8r	.	.	.	.	.	.
*	*	*	*	*	*	*ij	*	*	*	*	*	*	*	*
8D\L	.	8D\	Mors	et	8dd\	Mors	et	8ff#\	Mors	et	.	.	.	.
*	*	*	*	*	*	*Xij	*	*	*	*	*	*	*	*
8F#\	.	8F#\	il-	de-	8cc#\	il-	de-	8ee\	il-	de-	.	.	.	.
8G\J	.	8G\	-li	-dit	8b\	-li	-dit	8dd\	-li	-dit	.	.	.	.
=35	=35	=35	=35	=35	=35	=35	=35	=35	=35	=35	=35	=35	=35	=35
4A\	.	4A\	Ul-	do-	4cc#\	ul-	de-	4ee\	ul-	do-	.	.	.	.
4A\	.	4A\	-tra	-na	4cc#\	-tra	-dit	4ee\	-tra	-na	.	.	.	.
8r	.	8r	.	.	8r	.	.	8r	.	.	.	.	.	.
8G\L	.	(>16G\LL	Non	do-	8b\	non	do-	8dd\	non	do-	.	.	.	.
.	.	16F#\JJ)	.	.	.	.	.	.	.	.	.	.	.	.
8E\	# 6	8E\	Do-	-na	8cc#\	Do-	-na	8ee\	Do-	-na	.	.	.	.
8D\J	.	(>16F#\LL	-mi-	ho-	8dd\	-mi-	ho-	8ff#\	-mi-	ho-	.	.	.	.
.	.	16G\JJ)	.	.	.	.	.	.	.	.	.	.	.	.
!	!	!	!	!	!	!	!	!	!	!	!	!LO:TX:a:t=P:w źródle brak kreski taktowej:problem	!LO:TX:a:t=P:w źródle brak kreski taktowej:problem	!LO:TX:a:t=P:w źródle brak kreski taktowej:problem
=36	=36	=36	=36	=36	=36	=36	=36	=36	=36	=36	=36	=36	=36	=36
!LO:TX:a:t=P:mixed beam:problem	!	!	!	!	!	!	!	!	!	!	!	!LO:TX:b:t=a2	!	!
8.A\L	.	8.A\	-na-	-mi-	8.dd\	-na-	-mi-	8.ee\	-na-	-mi-	.	2r	2r	2r
16AA/Jk	.	16AA/	-bi-	-ni-	16cc#X\	-bi-	-ni-	16dd\	-bi-	-ni-	.	.	.	.
4D\	.	4D\	-tur	-bus	4dd\	-tur	-bus	4dd\	-tur	-bus	.	.	.	.
!LO:TX:b:Bi:t=Clarini	!	!	!	!	!	!	!	!	!	!	!	!	!	!LO:TX:b:t=a2
4D\	.	2r	.	.	2r	.	.	2r	.	.	.	8ff#\L	8aa\L	8aa\L
.	.	.	.	.	.	.	.	.	.	.	.	16ee\L	16gg\L	16gg\L
.	.	.	.	.	.	.	.	.	.	.	.	16dd\JJ	16ff#\JJ	16ff#\JJ
4G\	.	.	.	.	.	.	.	.	.	.	.	8.ee\L	8.gg\L	8.gg\L
.	.	.	.	.	.	.	.	.	.	.	.	16dd\Jk	16ff#\Jk	16ff#\Jk
!	!	!	!	!	!LO:TX:a:t=P:w źródle brak kreski taktowej:problem	!	!	!	!	!	!	!	!	!
!	!	!	!	!	!	!	!	!	!	!	!	!	!LO:LB:g=original	!LO:LB:g=original
=37	=37	=37	=37	=37	=37	=37	=37	=37	=37	=37	=37	=37	=37	=37
!LO:TX:a:t=3a	!	!	!	!	!	!	!	!	!	!	!	!	!	!
4A\	.	1r	.	.	1r	.	.	1r	.	.	.	8a\L	8ee\L	8ee\L
.	.	.	.	.	.	.	.	.	.	.	.	8dd\J	8ff#\J	8ff#\J
4G\	.	.	.	.	.	.	.	.	.	.	.	16ee\LL	16gg\LL	16gg\LL
.	.	.	.	.	.	.	.	.	.	.	.	16ff#\	16aa\	16aa\
.	.	.	.	.	.	.	.	.	.	.	.	16ee\	16gg\	16gg\
.	.	.	.	.	.	.	.	.	.	.	.	16dd\JJ	16ff#\JJ	16ff#\JJ
!LO:TX:a:t=P:mixed beam:problem	!	!	!	!	!	!	!	!	!	!	!	!	!	!
8A\L	.	.	.	.	.	.	.	.	.	.	.	4a/	4ee\	4ee\
8AA/J	.	.	.	.	.	.	.	.	.	.	.	.	.	.
4D\	.	.	.	.	.	.	.	.	.	.	.	4f#/	4dd\	4dd\
!	!	!LO:TX:a:t=P:w źródle brak kreski taktowej:problem	!	!	!LO:TX:a:t=P:w źródle brak kreski taktowej:problem	!	!	!	!	!	!	!	!	!
!	!	!LO:LB:g=original	!	!	!	!	!	!	!	!	!	!LO:LB:g=original	!	!
=38	=38	=38	=38	=38	=38	=38	=38	=38	=38	=38	=38	=38	=38	=38
!LO:TX:b:t=2cc	!	!	!	!	!	!	!	!	!	!	!	!	!	!
4AA/	.	8r	.	.	8r	.	.	8r	.	.	.	0r	0r	0r
.	.	8AA/	Mors	et	8cc#\	Mors	et	8ee\	Mors	et	.	.	.	.
8D\L	5	8D\	il-	de-	16dd\LL	il-	de-	16ff#\LL	il-	de-	.	.	.	.
.	.	.	.	.	16cc#\JJ	.	.	16ee\JJ	.	.	.	.	.	.
8D\J	7	8E\	-li	-dit	16b\LL	-li	-dit	(>16dd\LL	-li	-dit	.	.	.	.
.	.	.	.	.	16a\JJ	.	.	16cc#\JJ)	.	.	.	.	.	.
2E\	#	4E\	Ul-	do-	4g#X/	Ul-	do-	4b\	ul-	do-	.	.	.	.
.	.	4E\	-tra	-na	4g#/	-tra	-na	4b\	-tra	-na	.	.	.	.
!	!	!	!	!	!	!	!	!LO:LB:g=original	!	!	!	!	!	!
=39	=39	=39	=39	=39	=39	=39	=39	=39	=39	=39	=39	=39	=39	=39
8r	.	8r	.	.	8r	.	.	8r	.	.	.	.	.	.
8C#/L	.	8C#/	Non	do-	8cc#\	Non	do-	8gg\	No	do-	.	.	.	.
8D/	.	8D/	Do-	-na	16dd\LL	Do-	-na	16aa\LL	Do-	-na	.	.	.	.
.	.	.	.	.	16cc#\JJ	.	.	16gg\JJ	.	.	.	.	.	.
8AA/J	.	8AA/	-mi-	ho-	16b\LL	-mi-	ho-	16ff#\LL	-mi-	ho-	.	.	.	.
.	.	.	.	.	16a\JJ	.	.	16ee\JJ	.	.	.	.	.	.
!LO:LB:g=original	!	!	!	!	!	!	!	!	!	!	!	!	!	!
!LO:TX:a:t=a3	!	!	!	!	!	!	!	!	!	!	!	!	!	!
!LO:TX:a:t=P:mixed beam:problem	!	!	!	!	!	!	!	!	!	!	!	!	!	!
8.E\L	.	8.E\	-na-	-mi-	8.a\	-na-	-mi-	8.dd\	-na-	-mi-	.	.	.	.
!	!	!	!	!	!LO:SIC:s=16g#:v	!	!	!	!	!	!	!	!	!
16EE/Jk	.	16EE/	-bi-	-ni-	16g/	-bi-	-ni-	16cc#\	-bi-	-ni-	.	.	.	.
4AA/	#	4AA/	-tur	-bus.	4a\	-tur	-bus	4cc#\	-tur	-bus	.	.	.	.
!	!	!	!	!	!LO:LB:g=original	!	!	!	!	!	!	!	!	!
=40	=40	=40	=40	=40	=40	=40	=40	=40	=40	=40	=40	=40	=40	=40
8r	.	8r	.	.	8r	.	.	8r	.	.	.	1r	1r	1r
*	*	*	*	*	*	*ij	*	*	*	*	*	*	*	*
8G\L	.	16G\LL	Non	do-	8dd\	Non	do-	8ff#\	Non	do-	.	.	.	.
.	.	16F#\JJ	.	.	.	.	.	.	.	.	.	.	.	.
8E\	.	8E\	Do-	-na	16ee\LL	Do-	-na	16gg\LL	Do-	-na	.	.	.	.
.	.	.	.	.	16ff#\JJ	.	.	16aa\JJ	.	.	.	.	.	.
8D\J	.	8D\	-mi-	ho-	16ee\LL	-mi-	ho-	(>16gg\LL	-mi-	ho-	.	.	.	.
.	.	.	.	.	16dd\JJ	.	.	16ff#\JJ)	.	.	.	.	.	.
!LO:TX:a:t=P:mixed beam:problem	!	!	!	!	!	!	!	!	!	!	!	!	!	!
!LO:TX:a:t=a3	!	!	!	!	!	!	!	!	!	!	!	!	!	!
8.A\L	.	8.A\	-na-	-mi-	8.dd\	-na-	-mi-	8.ee\	-na-	-mi-	.	.	.	.
16AA/Jk	.	16AA/	-bi-	-ni-	16cc#X\	-bi-	-ni-	16dd\	-bi-	-ni-	.	.	.	.
4D\	.	4D/	-tur	-bus.	4dd\	-tur	-bus	4dd\	-tur	-bus	.	.	.	.
!	!	!	!	!	!LO:TX:a:t=P:w źródle brak kreski taktowej:problem	!	!	!	!	!	!	!LO:TX:a:t=P:w źródle brak kreski taktowej:problem	!LO:TX:a:t=P:w źródle brak kreski taktowej:problem	!LO:TX:a:t=P:w źródle brak kreski taktowej:problem
*	*	*	*	*	*	*Xij	*	*	*	*	*	*	*	*
=41	=41	=41	=41	=41	=41	=41	=41	=41	=41	=41	=41	=41	=41	=41
!LO:TX:b:Bi:t=Clarin.	!	!	!	!	!	!	!	!	!	!	!	!LO:TX:b:t=a2	!	!LO:TX:b:t=a2
4D\	.	0r	.	.	0r	.	.	0r	.	.	.	4ff#\	4aa\	4aa\
4GG/	.	.	.	.	.	.	.	.	.	.	.	16ee\LL	16gg\LL	16gg\LL
.	.	.	.	.	.	.	.	.	.	.	.	16ff#\	16aa\	16aa\
.	.	.	.	.	.	.	.	.	.	.	.	16ee\	16gg\	16gg\
.	.	.	.	.	.	.	.	.	.	.	.	16dd\JJ	16ff#\JJ	16ff#\JJ
2AA/	.	.	.	.	.	.	.	.	.	.	.	4a/	4ee\	4ee\
.	.	.	.	.	.	.	.	.	.	.	.	4a/	4ee\	4ee\
=42	=42	=42	=42	=42	=42	=42	=42	=42	=42	=42	=42	=42	=42	=42
8r	.	.	.	.	.	.	.	.	.	.	.	8r	8r	8r
8GG/L	.	.	.	.	.	.	.	.	.	.	.	8f#/L	8dd\	8dd\
8EE/	#6	.	.	.	.	.	.	.	.	.	.	8a/	16ee\LL	16ee\LL
.	.	.	.	.	.	.	.	.	.	.	.	.	16ff#\	16ff#\
8DD/J	.	.	.	.	.	.	.	.	.	.	.	8dd/J	16gg\	16gg\
.	.	.	.	.	.	.	.	.	.	.	.	.	16ff#\JJ	16ff#\JJ
4AA/	.	.	.	.	.	.	.	.	.	.	.	4a/	8.ee\L	8.eeT>\L
.	.	.	.	.	.	.	.	.	.	.	.	.	16dd\Jk	16dd\Jk
4D\	.	.	.	.	.	.	.	.	.	.	.	4f#/	4dd\	4dd\
!	!	!	!	!	!	!	!	!	!	!	!	!	!LO:TX:a:t=P:w źródle brak kreski taktowej:problem	!
=||	=||	=||	=||	=||	=||	=||	=||	=||	=||	=||	=||	=||	=	=||
*M3/2	*	*M3/2	*	*	*M3/2	*	*	*M3/2	*	*	*	*M3/2	*M3/2	*M3/2
!	!	!	!	!	!	!	!	!	!	!	!	!	!	!LO:TX:b:t=trzy rachowac
!LO:TX:b::t=can 2do	!	!LO:TX:b:t=canto 2do	!	!	!LO:TX:a:i:t=Solo	!	!	!	!	!	!	!	!	!LO:TX:a:t=can 2d
!	!	!LO:TX:a:t=6	!	!	!	!	!	!	!	!	!	!	!	!
!	!	!LO:N:vis=00	!	!	!	!	!	!LO:N:vis=00	!	!	!	!LO:N:vis=0	!LO:N:vis=0	!
2D/	.	00.r	.	.	2a\	Et	a-	00.r	.	.	.	0.r	0.r	1.r
2BB/	.	.	.	.	2dd\	e-	-scen-	.	.	.	.	.	.	.
2AA/	.	.	.	.	2ee\	-nim	-dens	.	.	.	.	.	.	.
=43	=43	=43	=43	=43	=43	=43	=43	=43	=43	=43	=43	=43	=43	=43
1D	.	.	.	.	(>4ff#\	Pa-	Chri-	.	.	.	.	.	.	1.r
.	.	.	.	.	4ee\	.	.	.	.	.	.	.	.	.
.	.	.	.	.	4dd\	.	.	.	.	.	.	.	.	.
.	.	.	.	.	4ff#\)	.	.	.	.	.	.	.	.	.
2GG/	7	.	.	.	(>4ee\	-scha	-ſtus	.	.	.	.	.	.	.
.	.	.	.	.	4dd\)	.	.	.	.	.	.	.	.	.
=44	=44	=44	=44	=44	=44	=44	=44	=44	=44	=44	=44	=44	=44	=44
1.AA	#	.	.	.	4cc#\	No-	in	.	.	.	.	1.r	1.r	1.r
.	.	.	.	.	4dd\	.	.	.	.	.	.	.	.	.
.	.	.	.	.	4cc#\	.	.	.	.	.	.	.	.	.
.	.	.	.	.	4b\	.	al-	.	.	.	.	.	.	.
.	.	.	.	.	2a\	-strum	-tum	.	.	.	.	.	.	.
!	!	!	!	!	!LO:TX:a:t=P:w źródle brak kreski taktowej:problem	!	!	!	!	!	!	!LO:TX:a:t=P:w źródle brak kreski taktowej:problem	!LO:TX:a:t=P:w źródle brak kreski taktowej:problem	!
!LO:LB:g=original	!	!	!	!	!	!	!	!	!	!	!	!	!	!
=45	=45	=45	=45	=45	=45	=45	=45	=45	=45	=45	=45	=45	=45	=45
!LO:TX:b:Bi:t=Clarini	!	!	!	!LO:N:vis=0	!	!	!	!	!	!	!	!	!	!
2D/	.	.	.	.	0.r	.	.	.	.	.	.	2d/	2a/	2a/
2BB/	.	.	.	.	.	.	.	.	.	.	.	2f#/	2dd\	2dd\
2AA/	.	.	.	.	.	.	.	.	.	.	.	2a/	2ee\	2ee\
=46	=46	=46	=46	=46	=46	=46	=46	=46	=46	=46	=46	=46	=46	=46
!	!	!LO:N:vis=0	!	!	!	!	!	!LO:N:vis=0	!	!	!	!	!	!
1DD	.	0.r	.	.	.	.	.	0.r	.	.	.	2dd\	2ff#\	2ff#\
.	.	.	.	.	.	.	.	.	.	.	.	4ee\	4gg\	4gg\
.	.	.	.	.	.	.	.	.	.	.	.	4ff#\	4aa\	4aa\
2GG/	7	.	.	.	.	.	.	.	.	.	.	4ee\	4gg\	4gg\
.	.	.	.	.	.	.	.	.	.	.	.	4dd\	4ff#\	4ff#\
!	!	!	!	!	!	!	!	!	!	!	!	!	!LO:LB:g=original	!LO:LB:g=original
=47	=47	=47	=47	=47	=47	=47	=47	=47	=47	=47	=47	=47	=47	=47
1.AA	.	.	.	.	1.r	.	.	.	.	.	.	1a	1ee	1ee
.	.	.	.	.	.	.	.	.	.	.	.	2a/	2ee\	2ee\
!	!	!	!	!	!LO:TX:a:t=P:w źródle brak kreski taktowej:problem	!	!	!	!	!	!	!	!LO:TX:a:t=P:w źródle brak kreski taktowej:problem	!
!	!	!LO:LB:g=original	!	!	!	!	!	!	!	!	!	!	!	!
=48	=48	=48	=48	=48	=48	=48	=48	=48	=48	=48	=48	=48	=48	=48
!LO:TX:a:t=2cc	!	!	!	!	!	!	!	!	!	!	!	!	!	!
!	!	!	!	!	!	!	!	!	!	!	!	!LO:N:vis=0	!LO:N:vis=0	!LO:N:vis=0
2D\	.	2D\	Et	a-	2dd\	Et	a-	2ff#\	Et	a-	.	0.r	0.r	0.r
!	!	!	!	!	!	!	!	!LO:TX:b:t=a2:rj	!	!	!	!	!	!
2F#\	.	2F#\	e-	-scen-	2cc#\	e-	-ſcen-	2ee\	e-	-scen-	.	.	.	.
2G\	.	2G\	-nim	-dens	2b\	-nim	-dens	2dd\	-nim	-dens	.	.	.	.
=49	=49	=49	=49	=49	=49	=49	=49	=49	=49	=49	=49	=49	=49	=49
1A	.	1A	Pa-	chri-	1cc#	Pa-	Chri-	1ee	Pa-	Chri-	.	.	.	.
2B\	.	2A\	-scha	-ſtus	2cc#\	-scha	-ſtus	2ee\	-scha	-ſtus	.	.	.	.
!	!	!	!	!	!LO:TX:a:t=P:w źródle brak kreski taktowej:problem	!	!	!	!	!	!	!LO:TX:a:t=P:w źródle brak kreski taktowej:problem	!LO:TX:a:t=P:w źródle brak kreski taktowej:problem	!LO:TX:a:t=P:w źródle brak kreski taktowej:problem
=50	=50	=50	=50	=50	=50	=50	=50	=50	=50	=50	=50	=50	=50	=50
!LO:TX:b:Bi:t=Clarini	!	!	!	!	!	!	!	!	!	!	!	!	!	!
!	!	!LO:TX:a:t=2	!	!	!	!	!	!	!	!	!	!	!	!
!	!	!LO:N:vis=0	!	!	!LO:N:vis=0	!	!	!LO:N:vis=0	!	!	!	!	!	!
2D\	.	0.r	.	.	0.r	.	.	0.r	.	.	.	2ff#\	2aa\	2aa\
1GG	7	.	.	.	.	.	.	.	.	.	.	4gg\	4bb\	4bb\
.	.	.	.	.	.	.	.	.	.	.	.	4ff#\	4aa\	4aa\
.	.	.	.	.	.	.	.	.	.	.	.	4ee\	4gg\	4gg\
.	.	.	.	.	.	.	.	.	.	.	.	4dd\	4ff#\	4ff#\
=51	=51	=51	=51	=51	=51	=51	=51	=51	=51	=51	=51	=51	=51	=51
1.AA	.	.	.	.	.	.	.	.	.	.	.	1a	1ee	1ee
.	.	.	.	.	.	.	.	.	.	.	.	2a/	2ee\	2ee\
!	!	!	!	!	!	!	!	!	!	!	!	!LO:LB:g=original	!	!
!	!	!LO:TX:a:t=P:w źródle brak kreski taktowej:problem	!	!	!LO:TX:a:t=P:w źródle brak kreski taktowej:problem	!	!	!	!	!	!	!	!LO:TX:a:t=P:w źródle brak kreski taktowej:problem	!
!	!	!	!	!	!LO:LB:g=original	!	!	!LO:LB:g=original	!	!	!	!	!	!
=52	=52	=52	=52	=52	=52	=52	=52	=52	=52	=52	=52	=52	=52	=52
!	!	!	!	!	!	!	!	!	!	!	!	!LO:N:vis=00	!LO:N:vis=00	!LO:N:vis=00
2r	.	2r	.	.	2r	.	.	2r	.	.	.	00.r	00.r	00.r
!LO:TX:a:t=2cc	!	!	!	!	!	!	!	!	!	!	!	!	!	!
2A\	.	2A\	Pa-	chri-	2cc#\	Pa-	Chri-	2ee\	Pa-	Chri-	.	.	.	.
2A\	.	2AA/	-scha	-ſtus	2cc#\	-scha	-ſtus	2ee\	-scha	-ſtum	.	.	.	.
=53	=53	=53	=53	=53	=53	=53	=53	=53	=53	=53	=53	=53	=53	=53
2.D\	.	2.D\	Pa-	chri-	4dd\	Pa-	in	(>4ff#\	Pa-	in	.	.	.	.
.	.	.	.	.	4cc#\	.	.	4ee\	.	.	.	.	.	.
.	.	.	.	.	4b\	.	.	4dd\)	.	.	.	.	.	.
4E\	.	4E\	.	.	4cc#\	.	.	4ee\	.	.	.	.	.	.
4F#\	.	4F#\	.	.	4dd\	.	.	4ff#\	.	.	.	.	.	.
4G\	.	4G\	.	.	4ee\	.	.	4gg\	.	.	.	.	.	.
=54	=54	=54	=54	=54	=54	=54	=54	=54	=54	=54	=54	=54	=54	=54
1A	.	1A	.	-ſtus	(>2cc#\	.	al-	1ee	-scha	al-	.	.	.	.
.	.	.	.	.	2a\)	.	.	.	.	.	.	.	.	.
2G\	.	(>4B\	-scha	in	2dd\	-scha	-tum	2ff#\	.	-tum	.	.	.	.
.	.	4G\)	.	.	.	.	.	.	.	.	.	.	.	.
!LO:TX:a:t=P:w źródle brak kreski taktowej:problem	!	!	!	!	!	!	!	!	!	!	!	!	!	!
!LO:LB:g=original	!	!	!	!	!	!	!	!	!	!	!	!	!	!
=55	=55	=55	=55	=55	=55	=55	=55	=55	=55	=55	=55	=55	=55	=55
1A	.	(>2.A\	No-	al-	2.dd\	no-	al-	1ee	no-	al-	.	.	.	.
.	.	4AA/)	.	.	4cc#X\	.	.	.	.	.	.	.	.	.
2D\	.	2D\	-ſtrum	-tum	2dd\	-ſtrum	-tum	2dd\	-ſtrum	-tum.	.	.	.	.
!	!	!	!	!	!	!	!	!	!	!	!	!LO:TX:a:t=P:w źródle brak kreski taktowej:problem	!LO:TX:a:t=P:w źródle brak kreski taktowej:problem	!LO:TX:a:t=P:w źródle brak kreski taktowej:problem
=56	=56	=56	=56	=56	=56	=56	=56	=56	=56	=56	=56	=56	=56	=56
!LO:TX:b:Bi:t=Clari	!	!	!	!	!	!	!	!	!	!	!	!	!	!
!	!	!LO:N:vis=00	!	!	!LO:N:vis=00	!	!	!LO:N:vis=00	!	!	!	!	!	!
1.AA	.	00.r	.	.	00.r	.	.	00.r	.	.	.	2r	2r	2r
.	.	.	.	.	.	.	.	.	.	.	.	2a/	2ee\	2ee\
.	.	.	.	.	.	.	.	.	.	.	.	2a/	2ee\	2ee\
=57	=57	=57	=57	=57	=57	=57	=57	=57	=57	=57	=57	=57	=57	=57
1D	.	.	.	.	.	.	.	.	.	.	.	4dd\	4ff#\	4ff#\
.	.	.	.	.	.	.	.	.	.	.	.	4a\	4ee\	4ee\
.	.	.	.	.	.	.	.	.	.	.	.	4dd\	4ff#\	4ff#\
.	.	.	.	.	.	.	.	.	.	.	.	4ff#\	4aa\	4aa\
2G\	.	.	.	.	.	.	.	.	.	.	.	4ee\	4gg\	4gg\
.	.	.	.	.	.	.	.	.	.	.	.	4dd\	4ff#\	4ff#\
=58	=58	=58	=58	=58	=58	=58	=58	=58	=58	=58	=58	=58	=58	=58
2A\	.	.	.	.	.	.	.	.	.	.	.	2a/	2ee\	2ee\
2F#\	.	.	.	.	.	.	.	.	.	.	.	2f#/	4ff#\	4ff#\
.	.	.	.	.	.	.	.	.	.	.	.	.	4ee\	4ee\
2D\	.	.	.	.	.	.	.	.	.	.	.	2d/	4ff#\	4ff#\
.	.	.	.	.	.	.	.	.	.	.	.	.	4gg\	4gg\
=59	=59	=59	=59	=59	=59	=59	=59	=59	=59	=59	=59	=59	=59	=59
1AA	.	.	.	.	.	.	.	.	.	.	.	1a	1ee	1ee
2DD/	.	.	.	.	.	.	.	.	.	.	.	2f#/	2dd\	2dd\
=60||	=60||	=60||	=60||	=60||	=60||	=60||	=60||	=60||	=60||	=60||	=60||	=60||	=60||	=60||
*M4/4	*	*M4/4	*	*	*M4/4	*	*	*M4/4	*	*	*	*M4/4	*M2/2	*M4/4
*met(c)	*	*met(c)	*	*	*met(c)	*	*	*met(c)	*	*	*	*met(c)	*met(c|)	*met(c)
!LO:TX:b:t=2cc:rj	!	!	!	!	!	!	!	!	!	!	!	!	!LO:TX:a:t=P:w źródle metrum alla breve:problem	!
4D\	.	8D\	in	et	8dd\	in	de-	8ff#\	in	de-	.	2r	2r	2r
.	.	8D\	Mo-	de-	8dd\	Mo-	-dit	8ff#\	Mo-	-dit	.	.	.	.
8G\L	.	8G\	-la-	-dit	16ee\LL	-la-	do-	16gg\LL	-la-	do-	.	.	.	.
.	.	.	.	.	16ff#\JJ	.	.	16aa\JJ	.	.	.	.	.	.
8G\J	.	8G\	-tus	do-	16ee\LL	-tus	.	16gg\LL	-tus	.	.	.	.	.
.	.	.	.	.	16dd\JJ	.	.	16ff#\JJ	.	.	.	.	.	.
!	!	!LO:LB:g=original	!	!	!	!	!	!	!	!	!	!	!	!
4A\	.	4A\	est	-na	4cc#X\	est	-na	4ee\	est	-na	.	8a/L	8ee\L	8ee\L
.	.	.	.	.	.	.	.	.	.	.	.	16a/L	16ee\L	16ee\L
.	.	.	.	.	.	.	.	.	.	.	.	16a/JJ	16ee\JJ	16ee\JJ
!LO:TX:b:B:t=Clar	!	!	!	!	!	!	!	!	!	!	!	!	!	!
4D/	.	4r	.	.	4r	.	.	4r	.	.	.	16dd\LL	16ff#\LL	16ff#\LL
.	.	.	.	.	.	.	.	.	.	.	.	16ff#\	16aa\	16aa\
.	.	.	.	.	.	.	.	.	.	.	.	16ee\	16gg\	16gg\
.	.	.	.	.	.	.	.	.	.	.	.	16dd\JJ	16ff#\JJ	16ff#\JJ
!	!	!	!	!	!	!	!	!	!	!	!	!	!LO:LB:g=original	!LO:LB:g=original
=61	=61	=61	=61	=61	=61	=61	=61	=61	=61	=61	=61	=61	=61	=61
4AA/	.	4r	.	.	4r	.	.	4r	.	.	.	4a/	4ee\	4ee\
!LO:TX:a:t=2cc	!	!	!	!	!	!	!	!	!	!	!	!LO:TX:b:t=2cc	!	!
8A\L	.	16A\LL	in	de-	8cc#\	in	de-	8ee\	in	de-	.	4r	4r	4r
.	.	16B\JJ	.	.	.	.	.	.	.	.	.	.	.	.
8A\J	.	16c#\LL	Mo-	-dit	8cc#\	mo-	-dit	8ee\	Mo-	-dit	.	.	.	.
.	.	16B\JJ	.	.	.	.	.	.	.	.	.	.	.	.
4D/	.	8d\	-la-	do-	8dd\	-la-	do-	8ff#\	-la-	do-	.	4r	4r	4r
.	.	8D/	-tus	-na	8dd\	-tus	-na	8ff#\	-tus	-na	.	.	.	.
8.AA/L	.	4r	.	.	4r	.	.	4r	.	.	.	8a/L	8ee\L	8ee\L
!LO:TX:b:B:t=Clar	!	!	!	!	!	!	!	!	!	!	!	!	!	!
.	.	.	.	.	.	.	.	.	.	.	.	8a/J	8ee\J	8ee\J
16AA/Jk	.	.	.	.	.	.	.	.	.	.	.	.	.	.
!LO:PB:g=riginal	!	!	!	!	!LO:LB:g=riginal	!	!	!LO:LB:g=riginal	!	!	!	!	!	!
=62	=62	=62	=62	=62	=62	=62	=62	=62	=62	=62	=62	=62	=62	=62
4D\	.	1r	.	.	1r	.	.	1r	.	.	.	8dd\L	8ff#\L	8ff#\L
.	.	.	.	.	.	.	.	.	.	.	.	16ee\L	16gg\L	16gg\L
.	.	.	.	.	.	.	.	.	.	.	.	16ff#\JJ	16aa\JJ	16aa\JJ
4G\	.	.	.	.	.	.	.	.	.	.	.	16ee\LL	16gg\LL	16gg\LL
.	.	.	.	.	.	.	.	.	.	.	.	16ff#\	16aa\	16aa\
.	.	.	.	.	.	.	.	.	.	.	.	16ee\	16gg\	16gg\
.	.	.	.	.	.	.	.	.	.	.	.	16dd\JJ	16ff#\JJ	16ff#\JJ
4A\	.	.	.	.	.	.	.	.	.	.	.	4a/	4ee\	4ee\
4D\	.	.	.	.	.	.	.	.	.	.	.	4f#/	4dd\	4dd\
!	!	!LO:TX:a:t=P:w źródle brak kreski taktowej:problem	!	!	!	!	!	!	!	!	!	!	!	!
!	!	!	!	!	!	!	!	!	!	!	!	!LO:LB:g=original	!	!
=63	=63	=63	=63	=63	=63	=63	=63	=63	=63	=63	=63	=63	=63	=63
*	*	*	*	*	*	*	*ij	*	*	*ij	*	*	*	*
8D\L	.	(>16D\LL	in	de-	8dd\	in	de-	8ff#\	in	de-	.	0r	0r	0r
.	.	16E\JJ)	.	.	.	.	.	.	.	.	.	.	.	.
16E\L	.	16F#\LL	Mo-	-dit	8dd\	Mo-	-dit	8ff#\	Mo-	-dit	.	.	.	.
16F#\JJ	.	16G\JJ	.	.	.	.	.	.	.	.	.	.	.	.
!LO:TX:a:t=a	!	!	!	!	!	!	!	!	!	!	!	!	!	!
8A\L	.	8A\	-la-	do-	8cc#\	-la-	do-	8ee\	-la-	do-	.	.	.	.
8A\J	.	8A\	-tus	-na.	8cc#,\	-tus	-na	8ee\	-tus	-na	.	.	.	.
*	*	*	*ij	*ij	*	*ij	*Xij	*	*ij	*	*	*	*	*
8E\L	.	(>16E\LL	in	de-	8ee\	in	de-	8gg\	in	de-	.	.	.	.
.	.	16F#\JJ)	.	.	.	.	.	.	.	.	.	.	.	.
16F#\L	.	16G\LL	Mo-	-dit	8ee\	Mo-	-dit	8gg\	Mo-	-dit	.	.	.	.
16G\JJ	.	16A\JJ	.	.	.	.	.	.	.	.	.	.	.	.
!LO:TX:a:t=P:w źródle '6' najprawdopodobniej dopisane ołówkiem:problem	!	!	!	!	!	!	!	!	!	!	!	!	!	!
8B\L	.	8B\	-la-	do-	8dd\	-la-	do-	8ff#\	-la-	do-	.	.	.	.
8B\J	6	8B\	-tus	-na	8dd\	-tus	-na	8ff#\	-tus	-na	.	.	.	.
*	*	*	*Xij	*Xij	*	*Xij	*	*	*Xij	*Xij	*	*	*	*
=64	=64	=64	=64	=64	=64	=64	=64	=64	=64	=64	=64	=64	=64	=64
8A\L	.	8A\	in	de-	8cc#\	in	de-	8ee\	in	de-	.	.	.	.
8G\	.	8G\	Mo-	-dit	8cc#\	Mo-	-dit	8ee\	Mo-	-dit	.	.	.	.
8F#\	.	8F#\	-la-	do-	16dd\LL	-la-	do-	16ff#\LL	-la-	do-	.	.	.	.
.	.	.	.	.	16cc#\JJ	.	.	16ee\JJ	.	.	.	.	.	.
8D\J	.	8D/	-tus	-na	16dd\LL	-tus	-na	16ff#\LL	-tus	-na	.	.	.	.
.	.	.	.	.	16ee\JJ	A-	.	16gg\JJ	.	.	.	.	.	.
!	!	!LO:TX:a:t=P:mixed beam:problem	!	!	!	!	!	!	!	!	!	!	!	!
4AA/	.	(>8A\L	A-	chri-	8cc#\L	.	Chri-	4ee\	Ag-	Chri-	.	.	.	.
.	.	8AA/J)	.	.	16b\L	.	.	.	.	.	.	.	.	.
.	.	.	.	.	16cc#\JJ	.	.	.	.	.	.	.	.	.
4D/	.	4D/	-gnus	-ſtus	4dd\	-gnus	-ſtus.	4dd\	-nus	-ſtus	.	.	.	.
!	!	!	!	!	!	!	!	!	!	!	!	!LO:TX:a:t=P:w źródle brak kreski taktowej:problem	!LO:TX:a:t=P:w źródle brak kreski taktowej:problem	!LO:TX:a:t=P:w źródle brak kreski taktowej:problem
!	!	!LO:LB:g=original	!	!	!	!	!	!	!	!	!	!	!	!
=65	=65	=65	=65	=65	=65	=65	=65	=65	=65	=65	=65	=65	=65	=65
4D/	.	0r	.	.	0r	.	.	0r	.	.	.	8dd\L	8ff#\L	8ff#\L
.	.	.	.	.	.	.	.	.	.	.	.	16dd\L	16ff#\L	16ff#\L
.	.	.	.	.	.	.	.	.	.	.	.	16dd\JJ	16ff#\JJ	16ff#\JJ
4AA/	.	.	.	.	.	.	.	.	.	.	.	8a/L	8ee\L	8ee\L
.	.	.	.	.	.	.	.	.	.	.	.	8b/J	8ee\J	8ee\J
4E\	-n	.	.	.	.	.	.	.	.	.	.	8ee\L	8gg\L	8gg\L
.	.	.	.	.	.	.	.	.	.	.	.	8ee\J	8gg\J	8gg\J
4F#\	6	.	.	.	.	.	.	.	.	.	.	8dd\L	8ff#\L	8ff#\L
.	.	.	.	.	.	.	.	.	.	.	.	8dd\J	8ff#\J	8ff#\J
=66	=66	=66	=66	=66	=66	=66	=66	=66	=66	=66	=66	=66	=66	=66
8d\L	.	.	.	.	.	.	.	.	.	.	.	8ff#\L	8aa\L	8aa\L
8A\	.	.	.	.	.	.	.	.	.	.	.	16ee\L	16gg\L	16gg\L
.	.	.	.	.	.	.	.	.	.	.	.	16dd\JJ	16ff#\JJ	16ff#\JJ
8B\	.	.	.	.	.	.	.	.	.	.	.	8.eeT>\L	8.gg\L	8.gg\L
8G\J	.	.	.	.	.	.	.	.	.	.	.	.	.	.
.	.	.	.	.	.	.	.	.	.	.	.	16dd\Jk	16ff#\Jk	16ff#\Jk
4A\	.	.	.	.	.	.	.	.	.	.	.	4a/	4ee\	4ee\
4D\	.	.	.	.	.	.	.	.	.	.	.	4f#/	4dd\	4dd\
!LO:LB:g=original	!	!	!	!	!	!	!	!	!	!	!	!	!	!
=||	=||	=||	=||	=||	=||	=||	=||	=||	=||	=||	=||	=||	=	=||
*M3/2	*	*M3/2	*	*	*M3/2	*	*	*M3/2	*	*	*	*M3/2	*M3/2	*M3/2
!LO:TX:a:t=2cc	!	!	!	!	!	!	!	!LO:TX:a:B:t=Solo	!	!	!	!	!	!
!	!	!LO:N:vis=0	!	!	!	!	!	!	!	!	!	!LO:N:vis=00	!LO:N:vis=00	!LO:N:vis=00
1.D	.	0.r	.	.	1.r	.	.	2a\	Vi-	.	.	00.r	00.r	00.r
.	.	.	.	.	.	.	.	2dd\	-vi-	.	.	.	.	.
.	.	.	.	.	.	.	.	2a\	-te	.	.	.	.	.
!LO:TX:a:t=P:w źródle brak kreski taktowej:problem	!	!	!	!	!	!	!	!	!	!	!	!	!	!
=67	=67	=67	=67	=67	=67	=67	=67	=67	=67	=67	=67	=67	=67	=67
*	*	*	*	*	*	*	*	*	*ij	*	*	*	*	*
1.D	.	.	.	.	2a\	Vi-	.	2dd\	Vi-	.	.	.	.	.
!	!	!	!	!	!	!	!	!LO:TX:b:t=a2:rj	!	!	!	!	!	!
.	.	.	.	.	2dd\	-vi-	.	2ff#\	-vi-	.	.	.	.	.
.	.	.	.	.	2a\	-te	.	2dd\	-te	.	.	.	.	.
*	*	*	*	*	*	*	*	*	*Xij	*	*	*	*	*
!LO:TX:a:t=P:w źródle brak kreski taktowej:problem	!	!LO:TX:a:t=P:w źródle brak kreski taktowej:problem	!	!	!	!	!	!	!	!	!	!	!	!
!	!	!	!	!	!LO:LB:g=original	!	!	!LO:LB:g=original	!	!	!	!	!	!
=68	=68	=68	=68	=68	=68	=68	=68	=68	=68	=68	=68	=68	=68	=68
*	*	*	*	*	*	*ij	*	*	*	*	*	*	*	*
1.D	.	2A\	Vi-	.	2dd\	Vi-	.	2ff#\	Vi-	.	.	.	.	.
.	.	2d\	-vi-	.	2ff#\	-vi-	.	2aa\	-vi-	.	.	.	.	.
.	.	2D\	-te	.	2dd\	-te	.	2ff#\	-te	.	.	.	.	.
*	*	*	*	*	*	*Xij	*	*	*	*	*	*	*	*
!LO:TX:a:t=P:w źródle brak kreski taktowej:problem	!	!	!	!	!	!	!	!	!	!	!	!	!	!
=69	=69	=69	=69	=69	=69	=69	=69	=69	=69	=69	=69	=69	=69	=69
*	*	*	*ij	*	*	*	*	*	*	*	*	*	*	*
1G	.	2.G\	Vi-	.	2.ee\	Vi-	.	2.gg\	Vi-	.	.	.	.	.
.	.	4G\	-vi-	.	4dd\	-vi-	.	4ff#\	-vi-	.	.	.	.	.
2A\	.	2A\	-te	.	2cc#X\	-te	.	2ee\	-te	.	.	.	.	.
*	*	*	*Xij	*	*	*	*	*	*	*	*	*	*	*
=70	=70	=70	=70	=70	=70	=70	=70	=70	=70	=70	=70	=70	=70	=70
!	!	!	!	!	!	!	!	!	!	!	!	!LO:N:vis=00	!LO:N:vis=0	!LO:N:vis=0
1D	.	1D	er-	.	1dd	er-	.	1ff#	er-	.	.	00.r	0.r	0.r
2D\	.	2D\	-go	.	2dd\	-go	.	2ff#\	-go	.	.	.	.	.
=71	=71	=71	=71	=71	=71	=71	=71	=71	=71	=71	=71	=71	=71	=71
2.G\	.	2.G\	Vi-	.	2.b\	Vi-	.	2.dd\	Vi-	.	.	.	.	.
4F#\	.	4F#\	-vi-	.	4b\	-vi-	.	4dd\	-vi-	.	.	.	.	.
2E\	#6	2E\	-te	.	2cc#\	-te	.	2ee\	-te	.	.	.	.	.
=72	=72	=72	=72	=72	=72	=72	=72	=72	=72	=72	=72	=72	=72	=72
2D\	.	2D\	cum	.	2dd\	cum	.	2ff#\	Cum	.	.	.	1.r	1.r
2A\	.	(>2A\	Chri-	.	2.dd\	Chri-	.	1ee	Chri-	.	.	.	.	.
2AA/	.	2AA/)	.	.	.	.	.	.	.	.	.	.	.	.
.	.	.	.	.	4cc#X\	.	.	.	.	.	.	.	.	.
!	!	!	!	!	!	!	!	!	!	!	!	!	!LO:TX:a:t=P:w źródle brak kreski taktowej:problem	!LO:TX:a:t=P:w źródle brak kreski taktowej:problem
=73	=73	=73	=73	=73	=73	=73	=73	=73	=73	=73	=73	=73	=73	=73
!LO:TX:b:Bi:t=2 clarini	!	!	!	!	!	!	!	!	!	!	!	!	!	!
1.D	.	1.D	-ſto	.	1.dd	-ſto	.	1.dd	-ſto	.	.	.	2a/	2a/
.	.	.	.	.	.	.	.	.	.	.	.	.	2dd\	2dd\
.	.	.	.	.	.	.	.	.	.	.	.	.	2a/	2a/
!LO:TX:a:t=P:w źródle brak kreski taktowej:problem	!	!	!	!	!	!	!	!	!	!	!	!LO:TX:a:t=P:w źródle brak kreski taktowej:problem	!	!
!	!	!	!	!	!	!	!	!	!	!	!	!	!LO:LB:g=original	!LO:LB:g=original
=74	=74	=74	=74	=74	=74	=74	=74	=74	=74	=74	=74	=74	=74	=74
!	!	!LO:N:vis=00	!	!	!LO:N:vis=00	!	!	!LO:N:vis=00	!	!	!	!	!	!
2D\	.	00.r	.	.	00.r	.	.	00.r	.	.	.	2a/	4dd\	4dd\
.	.	.	.	.	.	.	.	.	.	.	.	.	4ee\	4ee\
1D	.	.	.	.	.	.	.	.	.	.	.	2dd\	4ff#\	4ff#\
.	.	.	.	.	.	.	.	.	.	.	.	.	4ee\	4ee\
.	.	.	.	.	.	.	.	.	.	.	.	2a/	2dd\	2dd\
=75	=75	=75	=75	=75	=75	=75	=75	=75	=75	=75	=75	=75	=75	=75
1D	.	.	.	.	.	.	.	.	.	.	.	4dd\	4ff#\	4ff#\
.	.	.	.	.	.	.	.	.	.	.	.	4ee\	4gg\	4gg\
.	.	.	.	.	.	.	.	.	.	.	.	4ff#\	4aa\	4aa\
.	.	.	.	.	.	.	.	.	.	.	.	4ee\	4gg\	4gg\
2D\	.	.	.	.	.	.	.	.	.	.	.	2dd\	2ff#\	2ff#\
=76	=76	=76	=76	=76	=76	=76	=76	=76	=76	=76	=76	=76	=76	=76
1.D	.	.	.	.	.	.	.	.	.	.	.	2ff#\	2aa\	2aa\
.	.	.	.	.	.	.	.	.	.	.	.	4ff#\	4aa\	4aa\
.	.	.	.	.	.	.	.	.	.	.	.	4ee\	4gg\	4gg\
.	.	.	.	.	.	.	.	.	.	.	.	4ff#\	4aa\	4aa\
.	.	.	.	.	.	.	.	.	.	.	.	4gg\	4bb\	4bb\
!LO:TX:a:t=P:w źródle brak kreski taktowej:problem	!	!	!	!	!	!	!	!	!	!	!	!	!	!
!	!	!	!	!	!	!	!	!	!	!	!	!LO:LB:g=original	!	!
=77	=77	=77	=77	=77	=77	=77	=77	=77	=77	=77	=77	=77	=77	=77
1.D	.	.	.	.	.	.	.	.	.	.	.	2.ff#\	2.aa\	2.aa\
.	.	.	.	.	.	.	.	.	.	.	.	4ee\	4gg\	4gg\
.	.	.	.	.	.	.	.	.	.	.	.	2dd\	2ff#\	2ff#\
!LO:LB:g=original	!	!	!	!	!	!	!	!	!	!	!	!	!	!
=78	=78	=78	=78	=78	=78	=78	=78	=78	=78	=78	=78	=78	=78	=78
!	!	!LO:N:vis=0	!	!	!LO:N:vis=0	!	!	!LO:N:vis=0	!	!	!	!	!	!
2E\	-n	0.r	.	.	0.r	.	.	0.r	.	.	.	2ee\	2gg\	2gg\
2F#\	.	.	.	.	.	.	.	.	.	.	.	4ff#\	4aa\	4aa\
.	.	.	.	.	.	.	.	.	.	.	.	4ee\	4gg\	4gg\
2G\	.	.	.	.	.	.	.	.	.	.	.	4dd\	4ff#\	4ff#\
.	.	.	.	.	.	.	.	.	.	.	.	4ee\	4gg\	4gg\
=79	=79	=79	=79	=79	=79	=79	=79	=79	=79	=79	=79	=79	=79	=79
2A\	.	.	.	.	.	.	.	.	.	.	.	2a/	2ee\	2ee\
2F#\	.	.	.	.	.	.	.	.	.	.	.	4dd\	4ff#\	4ff#\
.	.	.	.	.	.	.	.	.	.	.	.	4ff#\	4aa\	4aa\
2D\	.	.	.	.	.	.	.	.	.	.	.	4ee\	4gg\	4gg\
.	.	.	.	.	.	.	.	.	.	.	.	4dd\	4ff#\	4ff#\
=80	=80	=80	=80	=80	=80	=80	=80	=80	=80	=80	=80	=80	=80	=80
!	!	!LO:TX:a:t=P:problem:pominięty fragment	!	!	!	!	!	!	!	!	!	!	!	!
1A	.	1.ryy	.	.	1.r	.	.	1.r	.	.	.	1a	1ee	1ee
2D\	.	.	.	.	.	.	.	.	.	.	.	2f#/	2dd\	2dd\
!	!	!	!	!	!LO:TX:a:t=P:w źródle brak kreski taktowej:problem	!	!	!	!	!	!	!	!	!
=81	=81	=81	=81	=81	=81	=81	=81	=81	=81	=81	=81	=81	=81	=81
!LO:TX:a:t=2cc	!	!LO:TX:b:t=a2	!	!	!	!	!	!	!	!	!	!	!	!
2D\	.	2d\	Vi-	.	2dd\	Vi-	.	2ff#\	Vi-	.	.	1.r	1.r	1.r
2AA/	.	2A\	-vi-	.	2cc#X\	-vi-	.	2ee\	-ni-	.	.	.	.	.
2D\	.	2D\	-te	.	2dd\	-te	.	2ff#\	-te	.	.	.	.	.
!	!	!	!	!	!	!	!	!	!	!	!	!LO:TX:a:t=P:w źródle brak kreski taktowej:problem	!LO:TX:a:t=P:w źródle brak kreski taktowej:problem	!LO:TX:a:t=P:w źródle brak kreski taktowej:problem
!	!	!LO:LB:g=original	!	!	!	!	!	!	!	!	!	!	!	!
=82	=82	=82	=82	=82	=82	=82	=82	=82	=82	=82	=82	=82	=82	=82
!LO:TX:b:Bi:t=Clari	!	!	!	!	!	!	!	!	!	!	!	!	!	!
2D\	.	1.r	.	.	1.r	.	.	1.r	.	.	.	2dd\	2ff#\	2ff#\
2AA/	.	.	.	.	.	.	.	.	.	.	.	2a/	2ee\	2ee\
2D\	.	.	.	.	.	.	.	.	.	.	.	2dd\	2ff#\	2ff#\
!	!	!LO:TX:a:t=P:w źródle brak kreski taktowej:problem	!	!	!LO:TX:a:t=P:w źródle brak kreski taktowej:problem	!	!	!	!	!	!	!	!	!
=83	=83	=83	=83	=83	=83	=83	=83	=83	=83	=83	=83	=83	=83	=83
!LO:TX:b:t=2cc	!	!	!	!	!	!	!	!	!	!	!	!	!	!
2d\	.	2D\	Cum	.	2dd\	cum	.	2ff#\	Cum	.	.	1.r	1.r	1.r
2A\	.	2A\	Chri-	.	2cc#\	chri-	.	2ee\	Chri-	.	.	.	.	.
2D\	.	2d\	-ſto	.	2dd\	-ſto	.	2ff#\	-ſto	.	.	.	.	.
!	!	!LO:TX:a:t=P:w źródle brak kreski taktowej:problem	!	!	!LO:TX:a:t=P:w źródle brak kreski taktowej:problem	!	!	!	!	!	!	!LO:TX:a:t=P:w źródle brak kreski taktowej:problem	!LO:TX:a:t=P:w źródle brak kreski taktowej:problem	!LO:TX:a:t=P:w źródle brak kreski taktowej:problem
!	!	!	!	!	!	!	!	!LO:LB:g=original	!	!	!	!	!	!
=84	=84	=84	=84	=84	=84	=84	=84	=84	=84	=84	=84	=84	=84	=84
!LO:TX:b:Bi:t=Clarini	!	!	!	!	!	!	!	!	!	!	!	!	!	!
2D\	.	1.r	.	.	1.r	.	.	1.r	.	.	.	2a/	2dd\	2dd\
2AA/	.	.	.	.	.	.	.	.	.	.	.	2f#/	2a/	2a/
2DD/	.	.	.	.	.	.	.	.	.	.	.	2d/	2f#/	2f#/
!	!	!	!	!	!	!	!	!	!	!	!	!	!LO:TX:a:t=P:w źródle brak kreski taktowej:problem	!
!	!	!	!	!	!LO:LB:g=original	!	!	!	!	!	!	!	!	!
=85	=85	=85	=85	=85	=85	=85	=85	=85	=85	=85	=85	=85	=85	=85
!LO:TX:b:t=2cc	!	!	!	!	!	!	!	!	!	!	!	!	!	!
!	!	!	!	!	!	!	!	!	!	!	!	!	!	!LO:TX:a:B:t=3
!	!	!	!	!	!	!	!	!	!	!	!	!LO:N:vis=0	!LO:N:vis=0	!LO:N:vis=0
2G\	.	2G\	Vi-	.	2b\	Vi-	.	2dd\	Vi-	.	.	0.r	0.r	0.r
!LO:TX:a:t=P:w źródle '#' delikatnie zamazany:problem	!	!	!	!	!	!	!	!	!	!	!	!	!	!
1F#	#6	2F#\	-vi-	.	4cc#X\	-vi-	.	(>4ee\	-ni-	.	.	.	.	.
.	.	.	.	.	4b\	-te	.	4dd\)	.	.	.	.	.	.
.	.	2F#\	-te	.	4cc#\	.	.	(>4ee\	-te	.	.	.	.	.
.	.	.	.	.	4dd\	.	.	4ff#\)	.	.	.	.	.	.
!LO:LB:g=original	!	!	!	!	!	!	!	!	!	!	!	!	!	!
=86	=86	=86	=86	=86	=86	=86	=86	=86	=86	=86	=86	=86	=86	=86
1E	-n	1E	er-	.	(>2b\	er-	.	1gg	er-	.	.	.	.	.
.	.	.	.	.	2cc#X\)	.	.	.	.	.	.	.	.	.
4F#\	.	(>4F#\	-go	.	2dd\	-go	.	2ff#\	-go	.	.	.	.	.
4G\	.	4G\)	.	.	.	.	.	.	.	.	.	.	.	.
=87	=87	=87	=87	=87	=87	=87	=87	=87	=87	=87	=87	=87	=87	=87
!	!	!	!	!	!	!	!	!	!	!	!	!LO:TX:b:B:t=Verte	!	!
!	!	!	!	!	!	!	!	!	!	!	!	!	!LO:TX:b:Bi:t=Verte Cito	!
2.A\	.	2.A\	Vi-	.	2.dd\	Vi-	.	2.ee\	Vi-	.	.	1.r	1.r	1.r
4AA/	.	4AA/	-vi-	.	4cc#X\	-vi-	.	4ee\	-ni-	.	.	.	.	.
2D\	.	2D\	-te	.	2dd\	-te	.	2dd\	-te	.	.	.	.	.
!	!	!	!	!	!	!	!	!	!	!	!	!LO:PB:g=original	!LO:PB:g=original	!LO:PB:g=original
=88	=88	=88	=88	=88	=88	=88	=88	=88	=88	=88	=88	=88	=88	=88
!LO:TX:b:B:t=2 clarini	!	!	!	!	!	!	!	!	!	!	!	!	!	!
!	!	!LO:N:vis=0	!	!	!LO:N:vis=0	!	!	!LO:N:vis=0	!	!	!	!	!	!
2D\	.	0.r	.	.	0.r	.	.	0.r	.	.	.	2dd\	2ff#\	2ff#\
2A\	.	.	.	.	.	.	.	.	.	.	.	4a/	4ee\	4ee\
.	.	.	.	.	.	.	.	.	.	.	.	4f#/	4dd\	4dd\
2F#\	.	.	.	.	.	.	.	.	.	.	.	4a/	4ee\	4ee\
.	.	.	.	.	.	.	.	.	.	.	.	4dd\	4ff#\	4ff#\
=89	=89	=89	=89	=89	=89	=89	=89	=89	=89	=89	=89	=89	=89	=89
1E	.	.	.	.	.	.	.	.	.	.	.	1ee	1gg	1gg
2F#\	6	.	.	.	.	.	.	.	.	.	.	2dd\	2ff#\	2ff#\
=90	=90	=90	=90	=90	=90	=90	=90	=90	=90	=90	=90	=90	=90	=90
1AA	.	1.r	.	.	1.r	.	.	1.r	.	.	.	2.a/	2.ee\	2.ee\
.	.	.	.	.	.	.	.	.	.	.	.	4a/	4ee\	4ee\
2D\	.	.	.	.	.	.	.	.	.	.	.	2f#/	2dd\	2dd\
=91||	=91||	=91||	=91||	=91||	=91||	=91||	=91||	=91||	=91||	=91||	=91||	=91||	=91||	=91||
*M4/4	*	*M4/4	*	*	*M4/4	*	*	*M4/4	*	*	*	*M4/4	*M2/2	*M4/4
*met(c)	*	*met(c)	*	*	*met(c)	*	*	*met(c)	*	*	*	*met(c)	*met(c|)	*met(c)
!LO:TX:b:t=2cc:rj	!	!	!	!	!	!	!	!	!	!	!	!	!LO:TX:a:t=P:w źródle metrum alla breve:problem	!
8D/L	.	8d\	Vi-	.	8a\	Vi-	.	8a\	Vi-	.	.	0r	0r	0r
8C#/	.	8c#,\	-vat	.	8a\	-vat	.	8a,\	-vat	.	.	.	.	.
*	*	*	*ij	*	*	*ij	*	*	*ij	*	*	*	*	*
8BB/	.	8B\	Vi-	.	8dd\	Vi-	.	8dd\	Vi-	.	.	.	.	.
8AA/J	.	8A,\	-vat	.	8cc#\	-vat	.	8ee,\	-vat	.	.	.	.	.
*	*	*	*Xij	*	*	*Xij	*	*	*Xij	*	*	*	*	*
4D\	.	16D\LL	chri-	.	4dd\	Chri-	.	4ff#\	Chri-	.	.	.	.	.
.	.	16E\	.	.	.	.	.	.	.	.	.	.	.	.
.	.	16F#\	.	.	.	.	.	.	.	.	.	.	.	.
.	.	16G\JJ	.	.	.	.	.	.	.	.	.	.	.	.
4A\	.	4A\	-ſtus.	.	4cc#\	-ſtus	.	4ee\	-ſtus	.	.	.	.	.
!	!	!LO:LB:g=original	!	!	!	!	!	!	!	!	!	!	!	!
=92	=92	=92	=92	=92	=92	=92	=92	=92	=92	=92	=92	=92	=92	=92
4G\	.	(>8G\L	Vi-	.	4b\	Vi-	.	4dd\	Vi-	.	.	.	.	.
.	.	8F#\J)	.	.	.	.	.	.	.	.	.	.	.	.
8E\L	#6	8E\	-vat	.	16cc#X\LL	-vat	.	16ee\LL	-vat	.	.	.	.	.
.	.	.	.	.	16dd\JJ	.	.	16ff#\JJ	.	.	.	.	.	.
8D\J	.	8D/	in	.	16ee\LL	in	.	16gg\LL	in	.	.	.	.	.
.	.	.	.	.	16dd\JJ	.	.	16ff#\JJ	.	.	.	.	.	.
!	!	!LO:TX:a:t=P:mixed beam:problem	!	!	!	!	!	!	!	!	!	!	!	!
4AA/	.	8A\L	No-	.	8.dd\L	No-	.	4ee\	No-	.	.	.	.	.
.	.	8AA/J	.	.	.	.	.	.	.	.	.	.	.	.
.	.	.	.	.	16cc#\Jk	.	.	.	.	.	.	.	.	.
4D\	.	4D/	-bis	.	4dd\	-bis	.	4dd\	-bis	.	.	.	.	.
!	!	!	!	!	!	!	!	!	!	!	!	!LO:TX:a:t=P:w źródle brak kreski taktowej:problem	!LO:TX:a:t=P:w źródle brak kreski taktowej:problem	!LO:TX:a:t=P:w źródle brak kreski taktowej:problem
!LO:LB:g=original	!	!	!	!	!LO:LB:g=original	!	!	!LO:LB:g=original	!	!	!	!	!	!
=93	=93	=93	=93	=93	=93	=93	=93	=93	=93	=93	=93	=93	=93	=93
!LO:TX:b:B:t=Clarini	!	!	!	!	!	!	!	!	!	!	!	!	!	!
4.D/	.	0r	.	.	0r	.	.	0r	.	.	.	8d/L	8a/L	8a/L
.	.	.	.	.	.	.	.	.	.	.	.	16d/L	16a/L	16a/L
.	.	.	.	.	.	.	.	.	.	.	.	16d/JJ	16a/JJ	16a/JJ
!	!	!	!	!	!	!	!	!	!	!	!	!	!	!LO:TX:a:t=c 2d
.	.	.	.	.	.	.	.	.	.	.	.	8f#/L	8dd\L	8dd\L
8C#/	.	.	.	.	.	.	.	.	.	.	.	8a/J	8ee\J	8ee\J
4D/	.	.	.	.	.	.	.	.	.	.	.	8dd\L	8ff#\L	8ff#\L
.	.	.	.	.	.	.	.	.	.	.	.	16ee\L	16gg\L	16gg\L
.	.	.	.	.	.	.	.	.	.	.	.	16dd\JJ	16ff#\JJ	16ff#\JJ
4AA/	.	.	.	.	.	.	.	.	.	.	.	4a/	4ee\	4ee\
=94	=94	=94	=94	=94	=94	=94	=94	=94	=94	=94	=94	=94	=94	=94
4F#\	6	.	.	.	.	.	.	.	.	.	.	8dd\L	8ff#\L	8ff#\L
.	.	.	.	.	.	.	.	.	.	.	.	8a\	8ee\J	8ee\J
8G\L	.	.	.	.	.	.	.	.	.	.	.	8f#\	16dd\LL	16dd\LL
.	.	.	.	.	.	.	.	.	.	.	.	.	16ee\	16ee\
8D\J	.	.	.	.	.	.	.	.	.	.	.	8d\J	16ff#\	16ff#\
.	.	.	.	.	.	.	.	.	.	.	.	.	16gg\JJ	16gg\JJ
4A\	.	.	.	.	.	.	.	.	.	.	.	4a/	4ee\	4ee\
4D\	.	.	.	.	.	.	.	.	.	.	.	4f#/	4dd\	4dd\
!	!	!	!	!	!LO:TX:a:t=P:w źródle brak kreski taktowej:problem	!	!	!LO:TX:a:t=P:w źródle brak kreski taktowej:problem	!	!	!	!	!	!
=95	=95	=95	=95	=95	=95	=95	=95	=95	=95	=95	=95	=95	=95	=95
!LO:TX:a:t=2cc	!	!	!	!	!	!	!	!	!	!	!	!	!	!
8D\L	.	8D\	Vi-	.	8dd\	Vi-	.	8ff#\	Vi-	.	.	2r	2r	2r
16F#\L	.	16F#\LL	-vat	.	16ee\LL	-vat	.	16gg\LL	-vat	.	.	.	.	.
16G\JJ	.	16G\JJ	.	.	16dd\JJ	.	.	16ff#,\JJ	.	.	.	.	.	.
*	*	*	*ij	*	*	*ij	*	*	*ij	*	*	*	*	*
4A\	.	8A\	Vi-	.	8cc#\	Vi-	.	8ee\	Vi-	.	.	.	.	.
.	.	8A\	-vat	.	8cc#\	-vat	.	8ee\	-vat	.	.	.	.	.
*	*	*	*Xij	*	*	*Xij	*	*	*Xij	*	*	*	*	*
!LO:TX:b:Bi:t=Clari	!	!	!	!	!	!	!	!	!	!	!	!	!	!
4D/	.	2r	.	.	2r	.	.	2r	.	.	.	8f#/L	8dd\L	8dd\L
.	.	.	.	.	.	.	.	.	.	.	.	8d/J	16ee\L	16ee\L
.	.	.	.	.	.	.	.	.	.	.	.	.	16ff#\JJ	16ff#\JJ
4AA/	.	.	.	.	.	.	.	.	.	.	.	8a/L	8ee\L	8ee\L
.	.	.	.	.	.	.	.	.	.	.	.	8a/J	8ee\J	8ee\J
!	!	!	!	!	!	!	!	!	!	!	!	!LO:LB:g=original	!LO:LB:g=original	!LO:LB:g=original
=96	=96	=96	=96	=96	=96	=96	=96	=96	=96	=96	=96	=96	=96	=96
!LO:TX:b:t=2cc	!	!	!	!	!	!	!	!	!	!	!	!	!	!
4D/	.	8d\	Vi-	.	8dd\	Vi-	.	8ff#\	Vi-	.	.	2r	2r	2r
.	.	8D/	-vat	.	16ee\LL	-vat	.	16gg\LL	-vat	.	.	.	.	.
.	.	.	.	.	16dd\JJ	.	.	16ff#\JJ	.	.	.	.	.	.
4AA/	.	8A\	Chri-	.	8cc#\	Chri-	.	8ee\	Chri-	.	.	.	.	.
.	.	8A\	-ſtus	.	8cc#\	-ſtus	.	8ee\	-ſtus	.	.	.	.	.
!LO:TX:b:Bi:t=Clari	!	!	!	!	!	!	!	!	!	!	!	!	!	!
4D/	.	2r	.	.	2r	.	.	2r	.	.	.	8ff#\L	8aa\L	8aa\L
.	.	.	.	.	.	.	.	.	.	.	.	16ee\L	16gg\L	16gg\L
.	.	.	.	.	.	.	.	.	.	.	.	16dd\JJ	16ff#\JJ	16ff#\JJ
4A\	.	.	.	.	.	.	.	.	.	.	.	8a/L	8ee\L	8ee\L
.	.	.	.	.	.	.	.	.	.	.	.	8a/J	8ee\J	8ee\J
=97	=97	=97	=97	=97	=97	=97	=97	=97	=97	=97	=97	=97	=97	=97
!LO:TX:a:t=2cc	!	!	!	!	!	!	!	!	!	!	!	!	!	!
8D\L	.	8D\	Vi-	.	8dd\	Vi-	.	8ff#\	Vi-	.	.	0r	0r	0r
16E\L	.	16E\LL	-vat	.	8cc#\	-vat	.	8ee\	-vat	.	.	.	.	.
16F#\JJ	.	16F#,\JJ	.	.	.	.	.	.	.	.	.	.	.	.
*	*	*	*ij	*	*	*	*	*	*	*	*	*	*	*
8.G\L	.	8G\	Vi-	.	8b\	Sem-	.	8dd\	Sem-	.	.	.	.	.
.	.	8F#\	-vat	.	8b,\	-per	.	8dd\	-per	.	.	.	.	.
16F#\Jk	.	.	.	.	.	.	.	.	.	.	.	.	.	.
*	*	*	*Xij	*	*	*	*	*	*	*	*	*	*	*
!LO:LB:g=original	!	!LO:PB:g=original	!	!	!	!	!	!	!	!	!	!	!	!
8E\L	-n	8E\	Vi-	.	8ee\	Vi-	.	8gg\	Vi-	.	.	.	.	.
16F#\L	.	16F#\LL	-vat	.	8dd\	-vat	.	8ff#\	-vat	.	.	.	.	.
16G\JJ	.	16G\JJ	.	.	.	.	.	.	.	.	.	.	.	.
8A\L	.	8A\	Chri-	.	8cc#\	Chri-	.	8ee\	Chri-	.	.	.	.	.
8A\J	.	8G\	-ſtus	.	8cc#\	-ſtus	.	8ee\	-ſtus.	.	.	.	.	.
!	!	!	!	!	!	!	!	!LO:TX:b:Bi:t=Volti Subito	!	!	!	!	!	!
!	!	!	!	!	!LO:PB:g=original	!	!	!LO:PB:g=original	!	!	!	!	!	!
=98	=98	=98	=98	=98	=98	=98	=98	=98	=98	=98	=98	=98	=98	=98
8r	.	8r	.	.	8r	.	.	8r	.	.	.	.	.	.
8F#\L	.	8F#\	Vi-	.	8dd\	Vi-	.	8ff#\	Vi-	.	.	.	.	.
8G\	.	8G\	-vat	.	(>16b\LL	-vat	.	16dd\LL	-vat	.	.	.	.	.
.	.	.	.	.	16cc#\JJ)	.	.	16ee\JJ	.	.	.	.	.	.
8D\J	.	8D\	in	.	(>16dd\LL	in	.	16ff#\LL	in	.	.	.	.	.
.	.	.	.	.	16ee\JJ)	.	.	16gg\JJ	.	.	.	.	.	.
!	!	!LO:TX:a:t=P:mixed beam:problem	!	!	!	!	!	!	!	!	!	!	!	!
4A\	.	8A\L	No-	.	8cc#X\L	no-	.	16ee\LL	No-	.	.	.	.	.
.	.	.	.	.	.	.	.	16dd\	.	.	.	.	.	.
.	.	8AA/J	.	.	16b\L	.	.	16ee\	.	.	.	.	.	.
.	.	.	.	.	16cc#\JJ	.	.	16ff#\JJ	.	.	.	.	.	.
4D\	.	4D\	-bis	.	4dd\	-bis	.	4dd\	-bis	.	.	.	.	.
!	!	!	!	!	!	!	!	!	!	!	!	!LO:TX:a:t=P:w źródle brak kreski taktowej:problem	!LO:TX:a:t=P:w źródle brak kreski taktowej:problem	!LO:TX:a:t=P:w źródle brak kreski taktowej:problem
=99	=99	=99	=99	=99	=99	=99	=99	=99	=99	=99	=99	=99	=99	=99
!LO:TX:b:B:t=Clarini	!	!	!	!	!	!	!	!	!	!	!	!	!	!
4D\	.	0r	.	.	0r	.	.	0r	.	.	.	8.ff#\L	8.aa\L	8.aa\L
.	.	.	.	.	.	.	.	.	.	.	.	.	.	.
.	.	.	.	.	.	.	.	.	.	.	.	16ee\Jk	16gg\Jk	16gg\Jk
4G\	.	.	.	.	.	.	.	.	.	.	.	8dd\L	8ff#\L	8ff#\L
.	.	.	.	.	.	.	.	.	.	.	.	8dd\J	8ff#\J	8ff#\J
4E\	-n	.	.	.	.	.	.	.	.	.	.	8.ee\L	8.gg\L	8.gg\L
.	.	.	.	.	.	.	.	.	.	.	.	.	.	.
.	.	.	.	.	.	.	.	.	.	.	.	16dd\Jk	16ff#\Jk	16ff#\Jk
4A\	.	.	.	.	.	.	.	.	.	.	.	8a/L	8ee\L	8ee\L
.	.	.	.	.	.	.	.	.	.	.	.	8a/J	8ee\J	8ee\J
=100	=100	=100	=100	=100	=100	=100	=100	=100	=100	=100	=100	=100	=100	=100
4D\	.	.	.	.	.	.	.	.	.	.	.	8f#/L	16dd\LL	16dd\LL
.	.	.	.	.	.	.	.	.	.	.	.	.	16ee\	16ee\
.	.	.	.	.	.	.	.	.	.	.	.	8d/	16ff#\	16ff#\
.	.	.	.	.	.	.	.	.	.	.	.	.	16gg\JJ	16gg\JJ
4r	.	.	.	.	.	.	.	.	.	.	.	8a/	16aa\LL	16aa\LL
.	.	.	.	.	.	.	.	.	.	.	.	.	16gg\	16gg\
.	.	.	.	.	.	.	.	.	.	.	.	8dd/J	16ff#\	16ff#\
.	.	.	.	.	.	.	.	.	.	.	.	.	16gg\JJ	16gg\JJ
4A\	.	.	.	.	.	.	.	.	.	.	.	4a/	16ee\LL	16ee\LL
.	.	.	.	.	.	.	.	.	.	.	.	.	16dd\	16dd\
.	.	.	.	.	.	.	.	.	.	.	.	.	16ee\	16ee\
.	.	.	.	.	.	.	.	.	.	.	.	.	16ff#\JJ	16ff#\JJ
4D\	.	.	.	.	.	.	.	.	.	.	.	4f#/	4dd\	4dd\
!	!	!LO:TX:a:t=P:w źródle brak kreski taktowej:problem	!	!	!LO:TX:a:t=P:w źródle brak kreski taktowej:problem	!	!	!LO:TX:a:t=P:w źródle brak kreski taktowej:problem	!	!	!	!	!LO:TX:a:t=P:w źródle brak kreski taktowej:problem	!
=101	=101	=101	=101	=101	=101	=101	=101	=101	=101	=101	=101	=101	=101	=101
!LO:TX:b:t=2cc	!	!	!	!	!	!	!	!	!	!	!	!	!	!
8A\L	.	8A\	Vi-	.	8cc#\	Vi-	.	8ee\	Vi-	.	.	0r	0r	0r
8D\	.	8d,\	-vat	.	8dd,\	-vat	.	8ff#,\	-vat	.	.	.	.	.
*	*	*	*ij	*	*	*ij	*	*	*ij	*	*	*	*	*
8AA\	.	8A\	Vi-	.	8cc#\	Vi-	.	8ee\	Vi-	.	.	.	.	.
8D\J	.	8D,\	-vat	.	8dd,\	-vat	.	8ff#,\	-vat	.	.	.	.	.
*	*	*	*Xij	*	*	*Xij	*	*	*Xij	*	*	*	*	*
8GG/L	.	8.G\	Vi-	.	8.ee\	Vi-	.	8.gg\	Vi-	.	.	.	.	.
8GG/J	.	.	.	.	.	.	.	.	.	.	.	.	.	.
.	.	16G,\	-vat	.	16dd\	-vat	.	16ff#\	-vat	.	.	.	.	.
*	*	*	*ij	*	*	*ij	*	*	*ij	*	*	*	*	*
4AA/	.	8A\	Vi-	.	8cc#\	Vi-	.	8ee\	Vi-	.	.	.	.	.
.	.	8A\	-vat	.	8cc#\	-vat	.	8ee\	-vat	.	.	.	.	.
*	*	*	*Xij	*	*	*Xij	*	*	*Xij	*	*	*	*	*
!	!	!LO:LB:g=original	!	!	!	!	!	!	!	!	!	!	!	!
=102	=102	=102	=102	=102	=102	=102	=102	=102	=102	=102	=102	=102	=102	=102
8r	.	8r	.	.	8r	.	.	8r	.	.	.	.	.	.
8FF#/L	.	8F#\	Chri-	.	8dd\	Chri-	.	8ff#\	Chri-	.	.	.	.	.
8GG/	.	8G\	-ſtus	.	16ee\LL	-ſtus	.	16gg\LL	-ſtus	.	.	.	.	.
.	.	.	.	.	16ff#\JJ	.	.	16aa\JJ	.	.	.	.	.	.
8D/J	.	8D\	in	.	16ee\LL	in	.	16gg\LL	in	.	.	.	.	.
!	!	!	!	!	!LO:SIC:o=SIC:custos ee:v:t=znak przypominający custos odsyłający do kolejnej pięciolinii	!	!	!	!	!	!	!	!	!
.	.	.	.	.	16dd\JJ	.	.	16ff#\JJ	.	.	.	.	.	.
!LO:LB:g=original	!	!	!	!	!LO:LB:g=original	!	!	!	!	!	!	!	!	!
4A\	.	4A\	No-	.	4cc#\	No-	.	4ee\	no-	.	.	.	.	.
8F#\L	.	8F#,\	-bis	.	8dd\	-bis	.	8ff#\	-bis	.	.	.	.	.
8D\J	.	8D/	in	.	8dd\	in	.	8ff#\	in	.	.	.	.	.
!	!	!	!	!	!	!	!	!LO:LB:g=original	!	!	!	!	!	!
=103	=103	=103	=103	=103	=103	=103	=103	=103	=103	=103	=103	=103	=103	=103
!	!	!LO:TX:a:t=P:mixed beam:problem	!	!	!	!	!	!	!	!	!	!	!	!
4A\	.	8A\L	No-	.	8.dd\L	No-	.	8ee\L	no-	.	.	1r	1r	1r
.	.	8AA/J	.	.	.	.	.	8ee\J	-bis	.	.	.	.	.
.	.	.	.	.	16cc#\Jk	-bis	.	.	.	.	.	.	.	.
8D\L	.	(>16D\LL	-bis	.	8dd\	Vi-	.	8dd\	Vi-	.	.	.	.	.
.	.	16E,\JJ)	.	.	.	.	.	.	.	.	.	.	.	.
!	!	!	!	!	!	!	!	!LO:SIC:o=f:v:t=w źródle prawidłowy dźwięk to 8ff# poprawiony przez skrypora	!	!	!	!	!	!
!	!	!	!	!	!LO:SIC:o=in nobis:v:t=skreślony tekst 'in nobis'	!	!	!LO:SIC:o=in nobis:v:t=skreślony tekst 'in nobis'	!	!	!	!	!	!
8G\J	.	16F#\LL	in	.	8dd\	-vat	.	8ff# 8dd\	-vat	.	.	.	.	.
.	.	16G\JJ	.	.	.	.	.	.	.	.	.	.	.	.
*	*	*	*	*	*	*ij	*	*	*	*	*	*	*	*
!LO:TX:a:t=P:mixed beam:problem	!	!LO:TX:a:t=P:mixed beam:problem	!	!	!	!	!	!	!	!	!	!	!	!
8A\L	.	8A\L	No-	.	8.dd\L	Vi-	.	8ee\L	Vi-	.	.	.	.	.
8AA/J	.	8AA/J	.	.	.	.	.	16dd\L	.	.	.	.	.	.
.	.	.	.	.	16cc#\Jk	.	.	16ee\JJ	.	.	.	.	.	.
4D\	.	4D\	-bis	.	4dd\	-vat	.	4dd\	-vat	.	.	.	.	.
*	*	*	*	*	*	*Xij	*	*	*	*	*	*	*	*
!	!	!	!	!	!	!	!	!	!	!	!	!LO:TX:a:t=P:w źródle brak kreski taktowej:problem	!LO:TX:a:t=P:w źródle brak kreski taktowej:problem	!LO:TX:a:t=P:w źródle brak kreski taktowej:problem
=104	=104	=104	=104	=104	=104	=104	=104	=104	=104	=104	=104	=104	=104	=104
!LO:TX:b:Bi:t=Clari	!	!LO:TX:a:t=cla	!	!	!	!	!	!	!	!	!	!	!	!
4AA/	.	0r	.	.	0r	.	.	0r	.	.	.	8a\L	8ee\L	8ee\L
.	.	.	.	.	.	.	.	.	.	.	.	8dd\	8ff#\	8ff#\
4r	.	.	.	.	.	.	.	.	.	.	.	8a\	8ee\	8ee\
.	.	.	.	.	.	.	.	.	.	.	.	8dd\J	8ff#\J	8ff#\J
4GG/	.	.	.	.	.	.	.	.	.	.	.	16ee\LL	16gg\LL	16gg\LL
.	.	.	.	.	.	.	.	.	.	.	.	16ff#\	16aa\	16aa\
.	.	.	.	.	.	.	.	.	.	.	.	16ee\	16gg\	16gg\
.	.	.	.	.	.	.	.	.	.	.	.	16dd\JJ	16ff#\JJ	16ff#\JJ
4AA/	.	.	.	.	.	.	.	.	.	.	.	8a/L	8ee\L	8ee\L
.	.	.	.	.	.	.	.	.	.	.	.	8a/J	8ee\J	8ee\J
!	!	!	!	!	!	!	!	!	!	!	!	!	!LO:TX:a:t=P:w źródle brak kreski taktowej:problem	!
=105	=105	=105	=105	=105	=105	=105	=105	=105	=105	=105	=105	=105	=105	=105
4D\	.	.	.	.	.	.	.	.	.	.	.	8r	8r	8r
.	.	.	.	.	.	.	.	.	.	.	.	8ff#\	8aa\	8aa\
4G\	.	.	.	.	.	.	.	.	.	.	.	16gg\LL	16bb\LL	16bb\LL
.	.	.	.	.	.	.	.	.	.	.	.	16ff#\	16aa\	16aa\
.	.	.	.	.	.	.	.	.	.	.	.	16ee\	16gg\	16gg\
.	.	.	.	.	.	.	.	.	.	.	.	16dd\JJ	16ff#\JJ	16ff#\JJ
!	!	!	!	!	!	!	!	!	!	!	!	!LO:LB:g=original	!LO:LB:g=original	!LO:LB:g=original
4A\	.	.	.	.	.	.	.	.	.	.	.	4a/	4ee\	4ee\
8F#\L	.	.	.	.	.	.	.	.	.	.	.	8dd\L	8ff#\L	8ff#\L
8D\J	.	.	.	.	.	.	.	.	.	.	.	8dd\J	16ff#\L	16ff#\L
.	.	.	.	.	.	.	.	.	.	.	.	.	16gg\JJ	16gg\JJ
=106	=106	=106	=106	=106	=106	=106	=106	=106	=106	=106	=106	=106	=106	=106
4AA/	.	1r	.	.	1r	.	.	1r	.	.	.	4a/	16ee\LL	16ee\LL
.	.	.	.	.	.	.	.	.	.	.	.	.	16dd\	16dd\
.	.	.	.	.	.	.	.	.	.	.	.	.	16ee\	16ee\
.	.	.	.	.	.	.	.	.	.	.	.	.	16ff#\JJ	16ff#\JJ
4DD/	.	.	.	.	.	.	.	.	.	.	.	8f#/L	16dd\LL	16dd\LL
.	.	.	.	.	.	.	.	.	.	.	.	.	16ee\	16ee\
.	.	.	.	.	.	.	.	.	.	.	.	8d/J	16ff#\	16ff#\
.	.	.	.	.	.	.	.	.	.	.	.	.	16gg\JJ	16gg\JJ
4AA/	.	.	.	.	.	.	.	.	.	.	.	4a/	16ee\LL	16ee\LL
.	.	.	.	.	.	.	.	.	.	.	.	.	16aa\	16aa\
.	.	.	.	.	.	.	.	.	.	.	.	.	16gg\	16gg\
.	.	.	.	.	.	.	.	.	.	.	.	.	16aa\JJ	16aa\JJ
4D\	.	.	.	.	.	.	.	.	.	.	.	4dd\	4ff#\	4ff#\
=||	=||	=||	=||	=||	=||	=||	=||	=||	=||	=||	=||	=||	=||	=||
*M3/2	*	*M3/2	*	*	*M3/2	*	*	*M3/2	*	*	*	*M3/2	*M3/2	*M3/2
!LO:TX:b:t=2cc	!	!LO:TX:a:t=adagiennssime	!	!	!LO:SIC:o=Suauiter:v:t=w źródle tekst trudny do odczytania:problem	!	!	!	!	!	!	!LO:TX:b:B:t=Alleluia	!LO:TX:b:Bi:t=Alleluia	!LO:TX:b:B:t=Alleluia
2D/	.	2D/	Al-	.	2a\	Al-	.	2a\	Al-	.	.	1.r	1.r	1.r
2BB/	.	2BB/	-le-	.	2b\	-le-	.	2dd\	-le-	.	.	.	.	.
2AA/	.	2AA/	-lu-	.	2cc#\	-lu-	.	2ee\	-lu-	.	.	.	.	.
!	!	!	!	!	!	!	!	!	!	!	!	!LO:TX:a:t=P:w źródle brak kreski taktowej:problem	!LO:TX:a:t=P:w źródle brak kreski taktowej:problem	!LO:TX:a:t=P:w źródle brak kreski taktowej:problem
!LO:LB:g=original	!	!	!	!	!	!	!	!	!	!	!	!	!	!
=107	=107	=107	=107	=107	=107	=107	=107	=107	=107	=107	=107	=107	=107	=107
!LO:TX:b:t=cla	!	!	!	!	!	!	!	!	!	!	!	!	!	!
2D\	.	2D\	-ia	.	2dd\	-ia	.	2ff#\	-ia	.	.	4d/	4a/	4a/
.	.	.	.	.	.	.	.	.	.	.	.	4d/	4a/	4a/
2r	.	2r	.	.	2r	.	.	2r	.	.	.	4f#/	4dd\	4dd\
.	.	.	.	.	.	.	.	.	.	.	.	4f#/	4dd\	4dd\
2r	.	2r	.	.	2r	.	.	2r	.	.	.	4a/	4ee\	4ee\
.	.	.	.	.	.	.	.	.	.	.	.	8a/L	8dd\L	8dd\L
.	.	.	.	.	.	.	.	.	.	.	.	8a/J	8ee\J	8ee\J
!	!	!LO:LB:g=original	!	!	!	!	!	!	!	!	!	!	!	!
=108	=108	=108	=108	=108	=108	=108	=108	=108	=108	=108	=108	=108	=108	=108
*	*	*	*ij	*	*	*ij	*	*	*	*	*	*	*	*
!LO:TX:b:t=2cc	!	!	!	!	!	!	!	!	!	!	!	!	!	!
2D/	.	2d\	Al-	.	2a\	Al-	.	2a\	Al-	.	.	2dd\	2ff#\	2ff#\
2BB/	.	2B\	-le-	.	2b\	-le-	.	2dd\	-le-	.	.	2r	2r	2r
2AA/	.	2A\	-lu-	.	2cc#\	-lu-	.	2ee\	-lu-	.	.	2r	2r	2r
=109	=109	=109	=109	=109	=109	=109	=109	=109	=109	=109	=109	=109	=109	=109
!LO:TX:b:t=cla	!	!	!	!	!	!	!	!	!	!	!	!	!	!
2D\	.	2D\	-ia	.	2dd\	-ia	.	2ff#\	-ia	.	.	4d/	4a/	4a/
.	.	.	.	.	.	.	.	.	.	.	.	4d/	4a/	4a/
*	*	*	*Xij	*	*	*Xij	*	*	*	*	*	*	*	*
2r	.	2r	.	.	2r	.	.	2r	.	.	.	4f#/	4dd\	4dd\
.	.	.	.	.	.	.	.	.	.	.	.	4f#/	4dd\	4dd\
2r	.	2r	.	.	2r	.	.	2r	.	.	.	4a/	4ee\	4ee\
.	.	.	.	.	.	.	.	.	.	.	.	4a/	8dd\L	8dd\L
.	.	.	.	.	.	.	.	.	.	.	.	.	8ee\J	8ee\J
!	!	!	!	!	!LO:LB:g=original	!	!	!	!	!	!	!	!	!
=110	=110	=110	=110	=110	=110	=110	=110	=110	=110	=110	=110	=110	=110	=110
!LO:TX:b:t=2cc	!	!	!	!	!	!	!	!	!	!	!	!	!	!
2D\	.	2D\	Al-	.	2dd\	Al-	.	2ff#\	Al-	.	.	2dd\	2ff#\	2ff#\
2F#\	.	2F#\	-le-	.	2cc#\	-le-	.	2ee\	-le-	.	.	2r	2r	2r
2G\	.	2G\	-lu-	.	2b\	-lu-	.	2dd\	-lu-	.	.	2r	2r	2r
!	!	!	!	!	!	!	!	!	!	!	!	!	!LO:LB:g=original	!LO:LB:g=original
=111	=111	=111	=111	=111	=111	=111	=111	=111	=111	=111	=111	=111	=111	=111
!	!	!	!	!	!	!	!	!	!	!	!	!LO:N:vis=0	!LO:N:vis=0	!LO:N:vis=0
1.A	.	1.A	-ia	.	4cc#\	-ia	.	(>4ee\	-ia	.	.	0.r	0.r	0.r
.	.	.	.	.	4dd\	.	.	4ff#\	.	.	.	.	.	.
.	.	.	.	.	4cc#\	.	.	4ee\	.	.	.	.	.	.
.	.	.	.	.	4b\	.	.	4dd\	.	.	.	.	.	.
.	.	.	.	.	2a\	.	.	2cc#\)	.	.	.	.	.	.
!	!	!	!	!	!	!	!	!LO:LB:g=original	!	!	!	!	!	!
=112	=112	=112	=112	=112	=112	=112	=112	=112	=112	=112	=112	=112	=112	=112
*	*	*	*ij	*	*	*	*	*	*	*	*	*	*	*
2D\	.	2D\	Al-	.	2dd\	Al-	.	2ff#\	Al-	.	.	.	.	.
2F#\	.	2F#\	-le-	.	2cc#\	-le-	.	2ee\	-le-	.	.	.	.	.
2G\	.	2G\	-lu-	.	2b\	-lu-	.	2dd\	-lu-	.	.	.	.	.
=113	=113	=113	=113	=113	=113	=113	=113	=113	=113	=113	=113	=113	=113	=113
1.A	.	1.A	-ia	.	1.cc#	-ia	.	1.ee	-ia	.	.	1.r	1.r	1.r
*	*	*	*Xij	*	*	*	*	*	*	*	*	*	*	*
!	!	!	!	!	!	!	!	!	!	!	!	!LO:TX:a:t=P:w źródle brak kreski taktowej:problem	!LO:TX:a:t=P:w źródle brak kreski taktowej:problem	!LO:TX:a:t=P:w źródle brak kreski taktowej:problem
!	!	!	!	!	!	!	!	!	!	!	!	!LO:LB:g=original	!	!
=114	=114	=114	=114	=114	=114	=114	=114	=114	=114	=114	=114	=114	=114	=114
!LO:TX:b:B:t=Clarini	!	!	!	!	!	!	!	!	!	!	!	!	!	!
!	!	!LO:N:vis=00	!	!	!LO:N:vis=00	!	!	!LO:N:vis=00	!	!	!	!	!	!
1D	.	00.r	.	.	00.r	.	.	00.r	.	.	.	2ff#\	2aa\	2aa\
.	.	.	.	.	.	.	.	.	.	.	.	4gg\	4bb\	4bb\
.	.	.	.	.	.	.	.	.	.	.	.	4ff#\	4aa\	4aa\
2G\	.	.	.	.	.	.	.	.	.	.	.	4ee\	4gg\	4gg\
.	.	.	.	.	.	.	.	.	.	.	.	4dd\	4ff#\	4ff#\
=115	=115	=115	=115	=115	=115	=115	=115	=115	=115	=115	=115	=115	=115	=115
1.A	.	.	.	.	.	.	.	.	.	.	.	4a/	4ee\	4ee\
.	.	.	.	.	.	.	.	.	.	.	.	4f#/	4dd\	4dd\
.	.	.	.	.	.	.	.	.	.	.	.	4a/	4ee\	4ee\
.	.	.	.	.	.	.	.	.	.	.	.	4dd/	4ff#\	4ff#\
.	.	.	.	.	.	.	.	.	.	.	.	2a/	2ee\	2ee\
=116	=116	=116	=116	=116	=116	=116	=116	=116	=116	=116	=116	=116	=116	=116
1D	.	.	.	.	.	.	.	.	.	.	.	2dd\	2ff#\	2ff#\
.	.	.	.	.	.	.	.	.	.	.	.	4ee\	4gg\	4gg\
.	.	.	.	.	.	.	.	.	.	.	.	4ff#\	4aa\	4aa\
2GG/	.	.	.	.	.	.	.	.	.	.	.	4ee\	4gg\	4gg\
.	.	.	.	.	.	.	.	.	.	.	.	4dd\	4ff#\	4ff#\
=117	=117	=117	=117	=117	=117	=117	=117	=117	=117	=117	=117	=117	=117	=117
1.AA	.	.	.	.	.	.	.	.	.	.	.	1.a	1.ee	1.eeTT>
!LO:TX:a:t=P:w źródle brak kreski taktowej:problem	!	!LO:TX:a:t=P:w źródle brak kreski taktowej:problem	!	!	!LO:TX:a:t=P:w źródle brak kreski taktowej:problem	!	!	!	!	!	!	!	!LO:TX:a:t=P:w źródle brak kreski taktowej:problem	!
!LO:LB:g=original	!	!	!	!	!	!	!	!	!	!	!	!	!	!
=118	=118	=118	=118	=118	=118	=118	=118	=118	=118	=118	=118	=118	=118	=118
!LO:TX:b:t=2cc:rj	!	!	!	!	!	!	!	!	!	!	!	!	!	!
2D/	.	2D/	Al-	.	2a\	Al-	.	2a\	Al-	.	.	1.r	1.r	1.r
2BB/	.	2BB/	-le-	.	2b\	-le-	.	2dd\	-le-	.	.	.	.	.
2AA/	.	2AA/	-lu-	.	2cc#\	-lu-	.	2ee\	-lu-	.	.	.	.	.
!	!	!	!	!	!	!	!	!	!	!	!	!LO:TX:a:t=P:w źródle brak kreski taktowej:problem	!LO:TX:a:t=P:w źródle brak kreski taktowej:problem	!LO:TX:a:t=P:w źródle brak kreski taktowej:problem
=119	=119	=119	=119	=119	=119	=119	=119	=119	=119	=119	=119	=119	=119	=119
!LO:TX:b:B:t=cla	!	!	!	!	!	!	!	!	!	!	!	!	!	!
2D\	.	2D\	-ia	.	2dd\	-ia	.	2ff#\	-ia	.	.	4d/	4a/	4a/
.	.	.	.	.	.	.	.	.	.	.	.	8d/L	8a/L	8a/L
.	.	.	.	.	.	.	.	.	.	.	.	8d/J	8a/J	8a/J
2r	.	2r	.	.	2r	.	.	2r	.	.	.	4f#/	4dd\	4dd\
.	.	.	.	.	.	.	.	.	.	.	.	4f#/	4dd\	4dd\
2r	.	2r	.	.	2r	.	.	2r	.	.	.	4a/	4ee\	4ee\
.	.	.	.	.	.	.	.	.	.	.	.	4a/	8dd\L	8dd\L
.	.	.	.	.	.	.	.	.	.	.	.	.	8ee\J	8ee\J
!	!	!	!	!	!	!	!	!LO:TX:a:t=P:w źródle brak kreski taktowej:problem	!	!	!	!	!	!
=120	=120	=120	=120	=120	=120	=120	=120	=120	=120	=120	=120	=120	=120	=120
!	!	!LO:N:vis=0	!	!	!LO:N:vis=0	!	!LO:N:vis=0	!	!	!	!	!	!	!
1D	.	0.r	.	.	0.r	.	.	0.r	.	.	.	2.dd\	2.ff#\	2.ff#\
.	.	.	.	.	.	.	.	.	.	.	.	8ee\L	8gg\L	8gg\L
.	.	.	.	.	.	.	.	.	.	.	.	8ff#\J	8aa\J	8aa\J
2G\	.	.	.	.	.	.	.	.	.	.	.	4ee\	4.gg\	4.gg\
.	.	.	.	.	.	.	.	.	.	.	.	4dd\	.	.
.	.	.	.	.	.	.	.	.	.	.	.	.	8ff#\	8ff#\
=121	=121	=121	=121	=121	=121	=121	=121	=121	=121	=121	=121	=121	=121	=121
1A	.	.	.	.	.	.	.	.	.	.	.	1a	1ee	1ee
2D\	.	.	.	.	.	.	.	.	.	.	.	2f#/	2dd\	2dd\
!	!	!LO:TX:a:t=P:w źródle brak kreski taktowej:problem	!	!	!LO:TX:a:t=P:w źródle brak kreski taktowej:problem	!	!	!	!	!	!	!	!	!
=122	=122	=122	=122	=122	=122	=122	=122	=122	=122	=122	=122	=122	=122	=122
!LO:TX:b:t=2cc	!	!	!	!	!	!	!	!	!	!	!	!	!	!
!	!	!	!	!	!	!	!	!	!	!	!	!LO:N:vis=00	!LO:N:vis=00	!LO:N:vis=00
2D\	.	2D\	Al-	.	2dd\	Al-	.	2ff#\	Al-	.	.	00.r	00.r	00.r
2F#\	.	2F#\	-le-	.	2cc#\	-le-	.	2ee\	-le-	.	.	.	.	.
2G\	.	2G\	-lu-	.	2b\	-lu-	.	2dd\	-lu-	.	.	.	.	.
=123	=123	=123	=123	=123	=123	=123	=123	=123	=123	=123	=123	=123	=123	=123
1.A	.	1.A	-ia	.	(>2.cc#\	-ia	.	(>2.ee\	-ia	.	.	.	.	.
.	.	.	.	.	4b\	.	.	4dd\)	.	.	.	.	.	.
.	.	.	.	.	2a\)	.	.	2cc#\	.	.	.	.	.	.
!	!	!LO:LB:g=original	!	!	!LO:LB:g=original	!	!	!	!	!	!	!	!	!
=124	=124	=124	=124	=124	=124	=124	=124	=124	=124	=124	=124	=124	=124	=124
*	*	*	*ij	*	*	*	*	*	*	*	*	*	*	*
2D\	.	2D\	Al-	.	2dd\	Al-	.	2ff#\	Al-	.	.	.	.	.
2F#\	.	2F#\	-le-	.	2cc#\	-le-	.	2ee\	-le-	.	.	.	.	.
2G\	.	2G\	-lu-	.	2b\	-lu-	.	2dd\	-lu-	.	.	.	.	.
=125	=125	=125	=125	=125	=125	=125	=125	=125	=125	=125	=125	=125	=125	=125
1.A	.	1.A	-ia	.	(>2.cc#\	-ia	.	(>2.ee\	-ia	.	.	.	.	.
.	.	.	.	.	4b\	.	.	4dd\)	.	.	.	.	.	.
.	.	.	.	.	2a\)	.	.	2cc#\	.	.	.	.	.	.
*	*	*	*Xij	*	*	*	*	*	*	*	*	*	*	*
!	!	!	!	!	!	!	!	!LO:LB:g=original	!	!	!	!LO:LB:g=original	!LO:LB:g=original	!LO:LB:g=original
=126	=126	=126	=126	=126	=126	=126	=126	=126	=126	=126	=126	=126	=126	=126
!LO:TX:b:Bi:t=Clarini	!	!	!	!	!	!	!	!	!	!	!	!	!	!
!	!	!LO:N:vis=00	!	!	!LO:N:vis=00	!	!	!LO:N:vis=00	!	!	!	!	!	!
2D\	.	00.r	.	.	00.r	.	.	00.r	.	.	.	2dd\	2ff#\	2ff#\
2r	.	.	.	.	.	.	.	.	.	.	.	2a/	2ee\	2ee\
2r	.	.	.	.	.	.	.	.	.	.	.	2f#/	2dd\	2dd\
!LO:PB:g=original	!	!	!	!	!	!	!	!	!	!	!	!	!	!
=127	=127	=127	=127	=127	=127	=127	=127	=127	=127	=127	=127	=127	=127	=127
2AA/	.	.	.	.	.	.	.	.	.	.	.	4a/	4ee\	4ee\
.	.	.	.	.	.	.	.	.	.	.	.	4f#/	4dd\	4dd\
2r	.	.	.	.	.	.	.	.	.	.	.	4a/	4ee\	4ee\
.	.	.	.	.	.	.	.	.	.	.	.	4dd\	4ff#\	4ff#\
2r	.	.	.	.	.	.	.	.	.	.	.	2a/	2ee\	2ee\
=128	=128	=128	=128	=128	=128	=128	=128	=128	=128	=128	=128	=128	=128	=128
2D\	.	.	.	.	.	.	.	.	.	.	.	2dd\	2ff#\	2ff#\
2F#\	.	.	.	.	.	.	.	.	.	.	.	4ee\	4gg\	4gg\
.	.	.	.	.	.	.	.	.	.	.	.	4ff#\	4aa\	4aa\
2G\	.	.	.	.	.	.	.	.	.	.	.	4ee\	4gg\	4gg\
.	.	.	.	.	.	.	.	.	.	.	.	4dd\	4ff#\	4ff#\
=129	=129	=129	=129	=129	=129	=129	=129	=129	=129	=129	=129	=129	=129	=129
1.A	.	.	.	.	.	.	.	.	.	.	.	1.a	1.ee	1.eeTT>
!	!	!LO:TX:a:t=P:w źródle brak kreski taktowej:problem	!	!	!LO:TX:a:t=P:w źródle brak kreski taktowej:problem	!	!	!	!	!	!	!	!	!
=130	=130	=130	=130	=130	=130	=130	=130	=130	=130	=130	=130	=130	=130	=130
!LO:TX:a:t=2cc	!	!	!	!	!	!	!	!	!	!	!	!	!	!
!	!	!	!	!	!	!	!	!	!	!	!	!LO:N:vis=00	!LO:N:vis=00	!LO:N:vis=00
2D\	.	2D\	Al-	.	2dd\	Al-	.	2ff#\	Al-	.	.	00.r	00.r	00.r
2F#\	.	2F#\	-le-	.	2cc#\	-le-	.	2ee\	-le-	.	.	.	.	.
2G\	.	2G\	-lu-	.	2b\	-lu-	.	2dd\	-lu-	.	.	.	.	.
=131	=131	=131	=131	=131	=131	=131	=131	=131	=131	=131	=131	=131	=131	=131
2.A\	.	4A\	-ia	.	(>2.cc#\	-ia	.	2.ee\	-ia	.	.	.	.	.
.	.	4B\	.	.	.	.	.	.	.	.	.	.	.	.
.	.	4A\	.	.	.	.	.	.	.	.	.	.	.	.
4G\	.	4G\	.	.	4b\	.	.	4dd\	.	.	.	.	.	.
4F#\	.	4F#\	.	.	2cc#\)	.	.	2ee\	.	.	.	.	.	.
4E\	.	4E\	.	.	.	.	.	.	.	.	.	.	.	.
=132	=132	=132	=132	=132	=132	=132	=132	=132	=132	=132	=132	=132	=132	=132
2D\	.	2D\	Al-	.	2dd\	Al-	.	2ff#\	Al-	.	.	.	.	.
2F#\	.	2F#\	-le-	.	2cc#\	-le-	.	2ee\	-le-	.	.	.	.	.
2G\	.	2G\	-lu-	.	2b\	-lu-	.	2dd\	-lu-	.	.	.	.	.
=133	=133	=133	=133	=133	=133	=133	=133	=133	=133	=133	=133	=133	=133	=133
1.A	.	1.A	-ia	.	1.cc#	-ia	.	1.ee	-ia	.	.	.	.	.
!	!	!	!	!	!	!	!	!	!	!	!	!LO:TX:a:t=P:w źródle brak kreski taktowej:problem	!LO:TX:a:t=P:w źródle brak kreski taktowej:problem	!LO:TX:a:t=P:w źródle brak kreski taktowej:problem
=134	=134	=134	=134	=134	=134	=134	=134	=134	=134	=134	=134	=134	=134	=134
!LO:TX:b:Bi:t=Clarini	!	!	!	!	!	!	!	!	!	!	!	!LO:TX:b:Bi:t=Solo clarini	!	!
!	!	!LO:N:vis=00	!	!	!LO:N:vis=00	!	!	!LO:N:vis=00	!	!	!	!	!	!
2D/	.	00.r	.	.	00.r	.	.	00.r	.	.	.	4d/	4a/	4a/
.	.	.	.	.	.	.	.	.	.	.	.	8d/L	4a/	4a/
.	.	.	.	.	.	.	.	.	.	.	.	8d/J	.	.
2BB/	.	.	.	.	.	.	.	.	.	.	.	4f#/	4dd\	4dd\
.	.	.	.	.	.	.	.	.	.	.	.	4f#/	4dd\	4dd\
2AA/	.	.	.	.	.	.	.	.	.	.	.	4a/	4ee\	4ee\
.	.	.	.	.	.	.	.	.	.	.	.	4a/	4ee\	4ee\
=135	=135	=135	=135	=135	=135	=135	=135	=135	=135	=135	=135	=135	=135	=135
2D\	.	.	.	.	.	.	.	.	.	.	.	4dd\	4ff#\	4ff#\
.	.	.	.	.	.	.	.	.	.	.	.	4ee\	4gg\	4gg\
2r	.	.	.	.	.	.	.	.	.	.	.	4dd\	4ff#\	4ff#\
.	.	.	.	.	.	.	.	.	.	.	.	4a/	4ee\	4ee\
!LO:TX:a:t=P:w źródle pauza i kreska taktowa jest wyblakła:problem	!	!	!	!	!	!	!	!	!	!	!	!	!	!
2r	.	.	.	.	.	.	.	.	.	.	.	2f#/	2dd\	2dd\
!LO:LB:g=original	!	!	!	!	!	!	!	!	!	!	!	!	!	!
=136	=136	=136	=136	=136	=136	=136	=136	=136	=136	=136	=136	=136	=136	=136
2D\	.	.	.	.	.	.	.	.	.	.	.	4ff#\	4aa\	4aa\
.	.	.	.	.	.	.	.	.	.	.	.	4gg\	4bb\	4bb\
2G\	.	.	.	.	.	.	.	.	.	.	.	4ff#\	4aa\	4aa\
.	.	.	.	.	.	.	.	.	.	.	.	4ee\	4gg\	4gg\
2D\	.	.	.	.	.	.	.	.	.	.	.	4dd\	4ff#\	4ff#\
.	.	.	.	.	.	.	.	.	.	.	.	4ee\	4gg\	4gg\
!	!	!	!	!	!	!	!	!	!	!	!	!LO:LB:g=original	!	!
=137	=137	=137	=137	=137	=137	=137	=137	=137	=137	=137	=137	=137	=137	=137
1.AA	.	.	.	.	.	.	.	.	.	.	.	1.a	1.ee	1.ee
!	!	!LO:TX:a:t=P:w źródle brak kreski taktowej:problem	!	!	!LO:TX:a:t=P:w źródle brak kreski taktowej:problem	!	!	!	!	!	!	!	!LO:TX:a:t=P:w źródle brak kreski taktowej:problem	!LO:TX:a:t=P:w źródle brak kreski taktowej:problem
=138	=138	=138	=138	=138	=138	=138	=138	=138	=138	=138	=138	=138	=138	=138
!LO:TX:b:t=2ccanti	!	!	!	!	!	!	!	!	!	!	!	!	!	!
!	!	!	!	!	!	!	!	!	!	!	!	!LO:N:vis=0	!LO:N:vis=0	!LO:N:vis=0
2D\	.	2d\	Al-	.	2a\	Al-	.	2a\	Al-	.	.	0.r	0.r	0.r
2BB/	.	2B\	-le-	.	2b\	-le-	.	2dd\	-le-	.	.	.	.	.
2AA/	.	2A\	-lu-	.	2cc#\	-lu-	.	2ee\	-lu-	.	.	.	.	.
!	!	!	!	!	!LO:LB:g=orignal	!	!	!	!	!	!	!	!	!
=139	=139	=139	=139	=139	=139	=139	=139	=139	=139	=139	=139	=139	=139	=139
2.D\	.	(>2.D\	-ia	.	(>2.dd\	-ia	.	2.ff#\	-ia	.	.	.	.	.
4E\	.	4E\	.	.	4cc#\	.	.	4ee\	.	.	.	.	.	.
4F#\	.	4F#\	.	.	2dd\)	.	.	2dd\	.	.	.	.	.	.
4D\	.	4D\)	.	.	.	.	.	.	.	.	.	.	.	.
!	!	!LO:LB:g=orignal	!	!	!	!	!	!	!	!	!	!	!	!
=140	=140	=140	=140	=140	=140	=140	=140	=140	=140	=140	=140	=140	=140	=140
2G\	.	2G\	Al-	.	(>4ee\	Al-	.	4gg\	Al-	.	.	1.r	1.r	1.r
.	.	.	.	.	4dd\	-le-	.	4ff#\	-le-	.	.	.	.	.
2A\	.	2A\	-le-	.	2cc#\)	-lu-	.	2ee\	-lu-	.	.	.	.	.
2D\	.	2AA/	-lu-	.	2cc#\	-ia	.	(>4ee\	.	.	.	.	.	.
.	.	.	.	.	.	.	.	4ff#\)	.	.	.	.	.	.
!	!	!	!	!	!	!	!	!	!	!	!	!LO:TX:a:t=P:w źródle brak kreski taktowej:problem	!	!
!	!	!	!	!	!	!	!	!LO:LB:g=orignal	!	!	!	!	!LO:LB:g=original	!LO:LB:g=original
=141	=141	=141	=141	=141	=141	=141	=141	=141	=141	=141	=141	=141	=141	=141
!LO:TX:b:Bi:t=Clarini	!	!	!	!	!	!	!	!	!	!	!	!	!	!
2D/	.	2D\	-ia	.	2dd\	.	.	2dd\	-ia	.	.	2d/	2a/	2a/
2BB/	.	1r	.	.	2r	.	.	2r	.	.	.	2f#/	2dd\	2dd\
2AA/	.	.	.	.	2r	.	.	2r	.	.	.	2a/	2ee\	2ee\
=142	=142	=142	=142	=142	=142	=142	=142	=142	=142	=142	=142	=142	=142	=142
!	!	!LO:N:vis=0	!	!	!LO:N:vis=0	!	!	!LO:N:vis=0	!	!	!	!	!	!
2D\	.	0.r	.	.	0.r	.	.	0.r	.	.	.	2dd\	2ff#\	2ff#\
2F#\	.	.	.	.	.	.	.	.	.	.	.	4ee\	4gg\	4gg\
.	.	.	.	.	.	.	.	.	.	.	.	4ff#\	4aa\	4aa\
2D\	.	.	.	.	.	.	.	.	.	.	.	4ee\	4gg\	4gg\
.	.	.	.	.	.	.	.	.	.	.	.	4dd\	4ff#\	4ff#\
!LO:TX:a:t=P:w źródle brak kreski taktowej:problem	!	!	!	!	!	!	!	!	!	!	!	!	!	!
=143	=143	=143	=143	=143	=143	=143	=143	=143	=143	=143	=143	=143	=143	=143
1AA	.	.	.	.	.	.	.	.	.	.	.	1a	1ee	1ee
2DD/	.	.	.	.	.	.	.	.	.	.	.	2f#/	2dd\	2dd\
!	!	!LO:TX:a:t=P:w źródle brak kreski taktowej:problem	!	!	!	!	!	!	!	!	!	!	!	!
!LO:LB:g=original	!	!	!	!	!	!	!	!	!	!	!	!	!	!
=144	=144	=144	=144	=144	=144	=144	=144	=144	=144	=144	=144	=144	=144	=144
!LO:TX:b:t=2cc:rj	!	!	!	!	!	!	!	!	!	!	!	!	!	!
!	!	!	!	!	!	!	!	!	!	!	!	!LO:N:vis=00	!LO:N:vis=00	!LO:N:vis=00
2D\	.	2D\	Al-	.	2dd\	Al-	.	2ff#\	Al-	.	.	00.r	00.r	00.r
2F#\	.	2F#\	-le-	.	2cc#\	-le-	.	2ee\	-le-	.	.	.	.	.
2G\	.	2G\	-lu-	.	2b\	-lu-	.	2dd\	-lu-	.	.	.	.	.
=145	=145	=145	=145	=145	=145	=145	=145	=145	=145	=145	=145	=145	=145	=145
1.A	.	1.A	-ia	.	2.cc#\	-ia	.	2.ee\	-ia	.	.	.	.	.
.	.	.	.	.	4b\	.	.	4dd\	.	.	.	.	.	.
.	.	.	.	.	2cc#\	.	.	2ee\	.	.	.	.	.	.
=146	=146	=146	=146	=146	=146	=146	=146	=146	=146	=146	=146	=146	=146	=146
2D\	.	2D\	Al-	.	2dd\	Al-	.	2ff#\	Al-	.	.	.	.	.
2F#\	.	2F#\	-le-	.	2cc#\	-le-	.	2ee\	-le-	.	.	.	.	.
2G\	.	2G\	-lu-	.	2b\	-lu-	.	2dd\	-lu-	.	.	.	.	.
=147	=147	=147	=147	=147	=147	=147	=147	=147	=147	=147	=147	=147	=147	=147
2.A\	.	4A\	-ia	.	(>2.cc#\	-ia	.	2.ee\	-ia	.	.	.	.	.
.	.	4B\	.	.	.	.	.	.	.	.	.	.	.	.
.	.	4A\	.	.	.	.	.	.	.	.	.	.	.	.
4G\	.	4G\	.	.	4b\	.	.	4dd\	.	.	.	.	.	.
4F#\	.	4F#\	.	.	2cc#\)	.	.	2ee\	.	.	.	.	.	.
4E\	.	4E\	.	.	.	.	.	.	.	.	.	.	.	.
!	!	!	!	!	!LO:LB:g=original	!	!	!	!	!	!	!	!	!
=148	=148	=148	=148	=148	=148	=148	=148	=148	=148	=148	=148	=148	=148	=148
!	!	!	!	!	!	!	!	!	!	!	!	!LO:N:vis=0	!LO:N:vis=0	!LO:N:vis=0
2D\	.	2D\	Al-	.	2dd\	Al-	.	2ff#\	Al-	.	.	0.r	0.r	0.r
2G\	.	(>4G\	-le-	.	2.dd\	-le-	.	2ee\	-le-	.	.	.	.	.
.	.	4E\)	.	.	.	.	.	.	.	.	.	.	.	.
2A\	.	(>4A\	-lu-	.	.	.	.	2ee\	-lu-	.	.	.	.	.
.	.	4AA/)	.	.	4cc#\	-lu-	.	.	.	.	.	.	.	.
=149	=149	=149	=149	=149	=149	=149	=149	=149	=149	=149	=149	=149	=149	=149
2.D/	.	(>4D\	-ia	.	2dd\	-ia	.	2dd\	-ia	.	.	.	.	.
.	.	4E\	.	.	.	.	.	.	.	.	.	.	.	.
.	.	4D\	.	.	2r	.	.	2r	.	.	.	.	.	.
4C#/	.	4C#\	.	.	.	.	.	.	.	.	.	.	.	.
4BB/	.	4BB/	.	.	2r	.	.	2r	.	.	.	.	.	.
4AA/	.	4AA/)	.	.	.	.	.	.	.	.	.	.	.	.
!	!	!LO:LB:g=original	!	!	!	!	!	!LO:LB:g=orignal	!	!	!	!	!	!
=150	=150	=150	=150	=150	=150	=150	=150	=150	=150	=150	=150	=150	=150	=150
*	*^	*	*	*	*	*	*	*	*	*	*	*	*	*
!	!	!	!LO:SIC:s=Al-:v	!	!	!	!	!	!	!	!	!	!	!	!
2GG/	.	.	2GG/	.	.	2dd\	Al-	.	2ff#\	Al-	.	.	1.r	1.r	1.r
!	!	!	!LO:SIC:s=-le-:v	!	!	!	!	!	!	!	!	!	!	!	!
1AA	1	3	2.AA/	.	.	2.dd\	-le-	.	2ee\	-le-	.	.	.	.	.
.	.	.	.	.	.	.	.	.	4ee\	-lu-	.	.	.	.	.
!	!	!	!LO:SIC:s=-lu-:v	!	!	!	!	!	!	!	!	!	!	!	!
.	.	.	4AA/	.	.	4cc#\	-lu-	.	4ff#\	.	.	.	.	.	.
!	!	!	!	!	!	!	!	!	!	!	!	!	!LO:TX:a:t=P:w źródle brak kreski taktowej:problem	!LO:TX:a:t=P:w źródle brak kreski taktowej:problem	!LO:TX:a:t=P:w źródle brak kreski taktowej:problem
*	*v	*v	*	*	*	*	*	*	*	*	*	*	*	*	*
=151	=151	=151	=151	=151	=151	=151	=151	=151	=151	=151	=151	=151	=151	=151
!LO:TX:b:t=Clarini	!	!	!	!	!	!	!	!	!	!	!	!	!	!
!	!	!LO:SIC:s=-ia:v	!	!	!	!	!	!	!	!	!	!	!	!
2D\	.	2D\	.	.	2dd\	-ia	.	2dd\	-ia	.	.	2ff#\	2aa\	2aa\
1G	.	2r	.	.	2r	.	.	2r	.	.	.	4gg\	4bb\	4bb\
.	.	.	.	.	.	.	.	.	.	.	.	4ff#\	4aa\	4aa\
.	.	2r	.	.	2r	.	.	2r	.	.	.	4ee\	4gg\	4gg\
.	.	.	.	.	.	.	.	.	.	.	.	4dd\	4ff#\	4ff#\
!LO:LB:g=original	!	!	!	!	!	!	!	!	!	!	!	!	!	!
=152	=152	=152	=152	=152	=152	=152	=152	=152	=152	=152	=152	=152	=152	=152
!	!	!	!	!	!	!	!	!LO:SIC:o=&:v:t=w źródle pod pauzami znak; raczej nie segno	!	!	!	!	!	!
!	!	!LO:N:vis=00	!	!	!LO:N:vis=00	!	!	!LO:N:vis=00	!	!	!	!	!	!
1A	.	00.r	.	.	00.r	.	.	00.r	.	.	.	2a/	2ee\	2ee\
.	.	.	.	.	.	.	.	.	.	.	.	4a/	4ee\	4ee\
.	.	.	.	.	.	.	.	.	.	.	.	4a/	4ee\	4ee\
2AA/	.	.	.	.	.	.	.	.	.	.	.	2a/	2ee\	2ee\
=153	=153	=153	=153	=153	=153	=153	=153	=153	=153	=153	=153	=153	=153	=153
2D\	.	.	.	.	.	.	.	.	.	.	.	2ff#\	2aa\	2aa\
2G\	.	.	.	.	.	.	.	.	.	.	.	4gg\	4bb\	4bb\
.	.	.	.	.	.	.	.	.	.	.	.	4ff#\	4aa\	4aa\
2D\	.	.	.	.	.	.	.	.	.	.	.	4ee\	4gg\	4gg\
.	.	.	.	.	.	.	.	.	.	.	.	4dd\	4ff#\	4ff#\
=154	=154	=154	=154	=154	=154	=154	=154	=154	=154	=154	=154	=154	=154	=154
1.AA	#	.	.	.	.	.	.	.	.	.	.	1.a	1.ee	1.ee
!	!	!	!	!	!	!	!	!	!	!	!	!LO:LB:g=original	!	!
=155	=155	=155	=155	=155	=155	=155	=155	=155	=155	=155	=155	=155	=155	=155
2D\	.	.	.	.	.	.	.	.	.	.	.	4d/	4a/	4a/
.	.	.	.	.	.	.	.	.	.	.	.	4d/	4a/	4a/
2r	.	.	.	.	.	.	.	.	.	.	.	4f#/	4dd\	4dd\
.	.	.	.	.	.	.	.	.	.	.	.	4f#/	4dd\	4dd\
2r	.	.	.	.	.	.	.	.	.	.	.	4a/	4ee\	4ee\
.	.	.	.	.	.	.	.	.	.	.	.	4a/	4ee\	4ee\
!	!	!	!	!	!	!	!	!	!	!	!	!	!LO:LB:g=original	!LO:LB:g=original
=156	=156	=156	=156	=156	=156	=156	=156	=156	=156	=156	=156	=156	=156	=156
!	!	!LO:N:vis=00	!	!	!LO:N:vis=00	!	!	!LO:N:vis=00	!	!	!	!	!	!
2D\	.	00.r	.	.	00.r	.	.	00.r	.	.	.	2.dd\	2.ff#\	2.ff#\
2r	.	.	.	.	.	.	.	.	.	.	.	.	.	.
.	.	.	.	.	.	.	.	.	.	.	.	4a/	4ee\	4ee\
2r	.	.	.	.	.	.	.	.	.	.	.	2f#/	2dd\	2dd\
=157	=157	=157	=157	=157	=157	=157	=157	=157	=157	=157	=157	=157	=157	=157
2E\	-n	.	.	.	.	.	.	.	.	.	.	2ee\	2gg\	2gg\
2F#\	6	.	.	.	.	.	.	.	.	.	.	4ff#\	4aa\	4aa\
.	.	.	.	.	.	.	.	.	.	.	.	4ee\	4gg\	4gg\
2G\	7	.	.	.	.	.	.	.	.	.	.	4dd\	4ff#\	4ff#\
.	.	.	.	.	.	.	.	.	.	.	.	4ee\	4gg\	4gg\
=158	=158	=158	=158	=158	=158	=158	=158	=158	=158	=158	=158	=158	=158	=158
1A	.	.	.	.	.	.	.	.	.	.	.	1a	1ee	1ee
2D\	.	.	.	.	.	.	.	.	.	.	.	2f#/	2dd\	2dd\
=159	=159	=159	=159	=159	=159	=159	=159	=159	=159	=159	=159	=159	=159	=159
2D\	.	.	.	.	.	.	.	.	.	.	.	2ff#\	2aa\	2aa\
2r	.	.	.	.	.	.	.	.	.	.	.	4dd\	4ff#\	4ff#\
.	.	.	.	.	.	.	.	.	.	.	.	4ff#\	4aa\	4aa\
2r	.	.	.	.	.	.	.	.	.	.	.	4ee\	4gg\	4gg\
.	.	.	.	.	.	.	.	.	.	.	.	4dd\	4ff#\	4ff#\
=160	=160	=160	=160	=160	=160	=160	=160	=160	=160	=160	=160	=160	=160	=160
!	!	!LO:N:vis=00	!	!	!LO:N:vis=00	!	!	!LO:N:vis=00	!	!	!	!	!	!
2E\	-n	00.r	.	.	00.r	.	.	00.r	.	.	.	2ee\	2gg\	2gg\
2r	.	.	.	.	.	.	.	.	.	.	.	4a/	4ee\	4ee\
.	.	.	.	.	.	.	.	.	.	.	.	4ee\	4gg\	4gg\
2r	.	.	.	.	.	.	.	.	.	.	.	4dd\	4ff#\	4ff#\
.	.	.	.	.	.	.	.	.	.	.	.	4a/	4ee\	4ee\
!LO:TX:a:t=P:w źródle kreska taktowa jest wyblakła:problem	!	!	!	!	!	!	!	!	!	!	!	!	!	!
!LO:LB:g=original	!	!	!	!	!	!	!	!	!	!	!	!	!	!
=161	=161	=161	=161	=161	=161	=161	=161	=161	=161	=161	=161	=161	=161	=161
1F#	.	.	.	.	.	.	.	.	.	.	.	2dd\	2ff#\	2ff#\
.	.	.	.	.	.	.	.	.	.	.	.	2a/	2ee\	2ee\
2G\	.	.	.	.	.	.	.	.	.	.	.	2f#/	2dd\	2dd\
=162	=162	=162	=162	=162	=162	=162	=162	=162	=162	=162	=162	=162	=162	=162
2.A\	.	.	.	.	.	.	.	.	.	.	.	1.a	1.ee	1.ee
4G\	.	.	.	.	.	.	.	.	.	.	.	.	.	.
4F#\	.	.	.	.	.	.	.	.	.	.	.	.	.	.
4E\	.	.	.	.	.	.	.	.	.	.	.	.	.	.
!	!	!	!	!	!	!	!	!	!	!	!	!LO:LB:g=original	!	!
=163	=163	=163	=163	=163	=163	=163	=163	=163	=163	=163	=163	=163	=163	=163
2D/	.	.	.	.	.	.	.	.	.	.	.	2d/	2a/	2a/
2BB/	.	.	.	.	.	.	.	.	.	.	.	2f#/	2dd\	2dd\
2AA/	.	.	.	.	.	.	.	.	.	.	.	2a/	2ee\	2ee\
!	!	!	!	!	!	!	!	!	!	!	!	!	!	!LO:LB:g=original
=164	=164	=164	=164	=164	=164	=164	=164	=164	=164	=164	=164	=164	=164	=164
!	!	!LO:N:vis=00	!	!	!LO:N:vis=00	!	!	!LO:N:vis=00	!	!	!	!	!	!
2D/	.	00.r	.	.	00.r	.	.	00.r	.	.	.	2dd\	4ff#\	4ff#\
.	.	.	.	.	.	.	.	.	.	.	.	.	4ee\	4ee\
2r	.	.	.	.	.	.	.	.	.	.	.	4dd\	4ff#\	4ff#\
.	.	.	.	.	.	.	.	.	.	.	.	4ee\	4gg\	4gg\
!	!	!	!	!	!	!	!	!	!	!	!	!	!LO:LB:g=original	!
2r	.	.	.	.	.	.	.	.	.	.	.	4ff#\	2aa\	2aa\
.	.	.	.	.	.	.	.	.	.	.	.	4ee\	.	.
=165	=165	=165	=165	=165	=165	=165	=165	=165	=165	=165	=165	=165	=165	=165
2G\	.	.	.	.	.	.	.	.	.	.	.	2dd\	2bb\	2bb\
2.A\	.	.	.	.	.	.	.	.	.	.	.	1a	1ee	1eeTT>
4AA/	.	.	.	.	.	.	.	.	.	.	.	.	.	.
=166	=166	=166	=166	=166	=166	=166	=166	=166	=166	=166	=166	=166	=166	=166
4D\	.	.	.	.	.	.	.	.	.	.	.	2f#/	2dd\	2dd\
4E\	.	.	.	.	.	.	.	.	.	.	.	.	.	.
4D\	.	.	.	.	.	.	.	.	.	.	.	2d/	2r	2r
4C#\	.	.	.	.	.	.	.	.	.	.	.	.	.	.
4BB/	.	.	.	.	.	.	.	.	.	.	.	2a/	2r	2r
4AA/	.	.	.	.	.	.	.	.	.	.	.	.	.	.
=167	=167	=167	=167	=167	=167	=167	=167	=167	=167	=167	=167	=167	=167	=167
*	*^	*	*	*	*	*	*	*	*	*	*	*	*	*
2GG/	.	.	.	.	.	.	.	.	.	.	.	.	4dd\	4ff#\	4ff#\
.	.	.	.	.	.	.	.	.	.	.	.	.	4ee\	4gg\	4gg\
1AA	1	3	.	.	.	.	.	.	.	.	.	.	2.a/	1ee	1eeTT>
.	.	.	.	.	.	.	.	.	.	.	.	.	4a/	.	.
!LO:TX:a:t=P:w źródle brak kreski taktowej:problem	!	!	!	!	!	!	!	!	!	!	!	!	!	!	!
!LO:LB:g=original	!	!	!	!	!	!	!	!	!	!	!	!	!	!	!
*	*v	*v	*	*	*	*	*	*	*	*	*	*	*	*	*
=168	=168	=168	=168	=168	=168	=168	=168	=168	=168	=168	=168	=168	=168	=168
!	!	!LO:SIC:o=Ut finis Christus Resurgens\n(tekst nieczytelny)\nnihil valeo:v:t=wykreślony tekst (nieczytelny)	!	!	!	!	!	!	!	!	!	!	!	!
!	!	!	!	!	!	!	!	!LO:N:vis=00	!	!	!	!	!	!
2DD/	.	1.r	.	.	1.r	.	.	00.r	.	.	.	2f#/	2dd\	2dd\
2r	.	.	.	.	.	.	.	.	.	.	.	2r	2r	2r
2r	.	.	.	.	.	.	.	.	.	.	.	2r	2r	2r
!LO:TX:a:Bi:t=Tuby wystroic na Delasolre\nwÿzeÿ	!	!	!	!	!	!	!	!	!	!	!	!	!	!
=169	=169	=169	=169	=169	=169	=169	=169	=169	=169	=169	=169	=169	=169	=169
!	!	!	!	!	!	!	!	!LO:TX:a:t=P:problem:niepotrzebnie powtórzony fragment	!	!	!	!	!	!
1.ryy	.	1.ryy	.	.	1.ryy	.	.	.	.	.	.	1.ryy	1.ryy	1.ryy
=170	=170	=170	=170	=170	=170	=170	=170	=170	=170	=170	=170	=170	=170	=170
1.ryy	.	1.ryy	.	.	1.ryy	.	.	.	.	.	.	1.ryy	1.ryy	1.ryy
=171	=171	=171	=171	=171	=171	=171	=171	=171	=171	=171	=171	=171	=171	=171
1.ryy	.	1.ryy	.	.	1.ryy	.	.	.	.	.	.	1.ryy	1.ryy	1.ryy
=172	=172	=172	=172	=172	=172	=172	=172	=172	=172	=172	=172	=172	=172	=172
!	!	!	!	!	!	!	!	!LO:N:vis=00	!	!	!	!	!	!
1.ryy	.	1.ryy	.	.	1.ryy	.	.	00.r	.	.	.	1.ryy	1.ryy	1.ryy
=173	=173	=173	=173	=173	=173	=173	=173	=173	=173	=173	=173	=173	=173	=173
1.ryy	.	1.ryy	.	.	1.ryy	.	.	.	.	.	.	1.ryy	1.ryy	1.ryy
=174	=174	=174	=174	=174	=174	=174	=174	=174	=174	=174	=174	=174	=174	=174
1.ryy	.	1.ryy	.	.	1.ryy	.	.	.	.	.	.	1.ryy	1.ryy	1.ryy
=175	=175	=175	=175	=175	=175	=175	=175	=175	=175	=175	=175	=175	=175	=175
1.ryy	.	1.ryy	.	.	1.ryy	.	.	.	.	.	ff	1.ryy	1.ryy	1.ryy
==	==	==	==	==	==	==	==	==	==	==	==	==	==	==
*-	*-	*-	*-	*-	*-	*-	*-	*-	*-	*-	*-	*-	*-	*-
!!title: @{OTL};
!!!RDF**kern: > = above
!!!RDF**kern: < = below
!!!ENC: Krzysztof Stępień
!!!END: 2020-04-18
!!!EED: Wojciech Jakubiak-Danek
!!!EST: 2020-10-15
!!!URL-scan: http://bc.bdsandomierz.pl/dlibra/publication/1596/edition/1564/content
!!!ONB-nifc: dodatkowa partia clno 3: uwzględnić w xml-u i edycji krytycznej,
